AbdulrazzakJaroukh/IIWA_work/iiwa-joints-samples-without-tuning.csv
j1, j2, j3, j4, j5, j6, j7,
-0.2,1.25,2.355,1.9,1.047,0.785,0,
0.88302,-0.826042,-2.11544,-1.20225,2.45543,1.6823,-1.81567,
-0.520724,0.112052,-1.57995,-1.98452,-0.13027,-1.48214,2.73237,
-1.38945,-0.324723,-2.71349,-0.695504,2.66744,-1.97343,-1.22856,
1.52813,0.0855579,1.93238,0.269275,0.164943,0.756301,0.00850684,
0.860505,-0.855517,-2.04945,-1.20264,2.40324,1.65814,-1.84183,
1.2195,0.112802,1.55127,-0.8366,-0.910403,1.04468,-2.23613,
0.839581,-0.889842,-1.97843,-1.20229,2.34651,1.63101,-1.87175,
2.52084,0.987384,0.819659,0.715355,-2.10998,-1.05511,1.83435,
1.24357,-0.637375,-2.85357,-1.20272,2.9668,1.8173,-1.52062,
-1.57062,-1.68146,-0.84761,0.874657,0.486573,0.666689,-0.190528,
-1.83521,0.632886,-2.96089,1.1972,-0.109847,1.82103,-1.47918,
-0.233623,-1.36077,1.80892,-1.0143,-1.01624,-0.0815696,-0.671391,
-1.89657,0.63964,0.286103,-1.19878,2.9668,1.81566,-1.51953,
1.61016,-0.580966,1.05647,-0.774371,-0.77323,0.00264781,1.54729,
0.815919,-0.939548,-1.88396,-1.2021,2.26658,1.58992,-1.90724,
2.93786,1.22655,2.49095,-1.17723,-1.69058,0.516433,1.58175,
1.19187,-0.648313,-2.76218,-1.2026,-0.231362,-1.80927,1.58586,
0.600963,0.0263688,1.79477,-0.833273,2.61319,-1.14524,0.404444,
1.05252,-0.696774,-2.50312,-1.20248,-0.40195,-1.77761,1.48571,
1.34599,0.560293,-2.22122,-0.456869,-0.848028,-0.791752,-1.24049,
1.24333,-0.637592,-2.85289,-1.20229,2.9668,1.81532,-1.5208,
0.799203,1.23408,-0.869181,-1.25437,1.19501,0.435741,1.67823,
2.09702,1.46379,-2.34195,-0.303976,-1.35924,1.41599,-0.389418,
0.391193,0.720354,0.615988,-1.23329,2.04471,1.20198,2.96265,
1.29155,0.398648,0.582642,-0.0145499,0.623749,0.000322809,1.0751,
1.57506,0.430939,1.82376,1.16407,1.8817,1.06705,1.60981,
2.35454,0.839108,-2.19888,-1.76055,-2.00605,0.973409,1.04741,
1.74536,0.73508,-1.59289,0.28666,1.50264,-0.979745,0.16829,
1.8028,1.19988,1.96721,0.304454,-1.24857,0.506721,1.17868,
1.54048,-0.250155,0.433293,-0.716966,-1.83236,-0.18126,2.50166,
1.6899,0.825081,-1.01684,-1.32643,-1.60508,-1.39663,2.61229,
2.75324,0.0277362,-0.0994091,0.456347,-2.52627,-0.853165,0.642117,
1.82629,-0.0716305,2.09303,-0.671231,-2.85355,-0.849448,-2.77442,
2.13653,2.06101,0.545418,0.79134,-2.1085,-0.509195,-0.91887,
-0.670057,-1.30897,-0.843245,0.653565,0.733126,0.280406,2.78165,
-2.33721,1.16479,-2.4086,-1.73918,-1.28353,0.471699,-0.613211,
-2.39882,1.17982,-0.822676,-0.900144,-1.59901,0.652942,-1.37049,
-1.53971,-1.10166,0.650044,-1.18907,0.198091,0.210339,-3.02946,
0.316918,-0.10686,1.19943,-0.518409,-1.3349,-1.53672,-2.52676,
0.637302,-0.488852,-2.17888,1.83159,-2.91706,2.08331,-0.784619,
-1.09404,-1.73902,0.592901,-0.510535,1.25743,0.827972,-1.54367,
0.384541,-0.50219,-2.54629,-0.150173,0.596064,-0.0318123,-1.08104,
-1.40437,-1.48648,-1.01773,-1.07121,1.55464,-0.19706,0.504105,
1.76472,0.943159,2.77008,1.28304,-0.0929659,-1.65597,-1.91956,
2.62677,1.70711,2.52687,-2.04489,-0.439051,-0.423119,-0.0335779,
0.131096,0.43853,0.831096,-1.97193,-2.72274,1.75718,0.210857,
0.0384557,-0.420341,0.740677,0.219257,2.58651,-0.321732,-1.5612,
-0.283251,-0.596148,-2.92353,0.92238,-2.26494,0.134122,1.33972,
-2.28479,-1.07309,1.19237,-1.603,0.682781,0.167226,1.53199,
-1.95948,-0.988311,1.1453,1.365,-0.338938,1.70318,0.734073,
-0.637529,0.115142,-0.0238398,1.77074,2.89972,-0.881086,1.84449,
-2.73766,-0.236199,2.49208,-1.29231,2.50676,1.88838,-0.993008,
-0.15641,-1.32216,-0.49364,0.53904,1.90264,1.33553,1.72546,
-1.14525,-1.64759,-2.17746,-0.242807,-0.816125,0.690004,1.87323,
2.50931,1.13732,1.44734,0.0391103,-1.9829,-0.718063,-0.0584476,
2.30671,1.9676,-2.59459,-1.38227,2.16272,-0.322815,-0.971428,
0.0605085,0.445486,-0.369244,-1.10214,-1.1423,-0.209725,1.33654,
-0.12182,-1.3774,-0.0785262,-0.0570845,-2.45498,-0.378991,3.00623,
-0.482719,-0.458106,-0.527864,0.695365,0.764949,0.420617,2.9522,
0.716311,1.53722,-0.285693,1.89069,0.81572,-0.830196,1.50657,
2.86018,0.490347,-0.18719,-1.15362,-2.17307,0.704755,-0.16803,
-1.58804,-0.708309,0.532214,-0.663829,0.832579,-1.6221,0.747007,
2.50684,0.358283,1.055,-0.761653,0.0346513,-0.805918,2.80615,
-0.244142,0.43642,1.32147,-0.117898,-1.88973,-1.47956,-0.408879,
0.200872,-0.256783,-0.473041,0.965812,-2.55428,1.82799,1.92693,
0.69195,1.55402,-0.380324,1.42717,2.62265,0.709929,1.84682,
-0.0801501,-0.998144,1.289,-1.43072,-2.37927,1.84194,2.64279,
0.0496253,-1.58766,2.07129,-1.65408,-0.403179,-1.13457,-1.46903,
-2.92294,-1.27534,-1.47336,-1.14655,-2.13028,1.09376,0.223843,
0.730724,-0.0453229,-1.97803,-0.576826,-0.949053,-0.273446,1.16384,
-0.963537,-0.473916,-0.24304,1.02728,2.83709,-0.702905,-0.966098,
1.85515,1.51955,0.146335,1.94988,1.62483,-0.586487,-2.40214,
1.80112,0.590034,-2.16588,-1.59965,-1.18946,0.543961,1.23843,
-2.16748,1.00689,2.02386,1.73647,2.83249,1.42814,1.99428,
-1.77055,-1.88463,-1.75575,0.594804,1.0246,1.91287,-2.08462,
1.19923,-0.599207,-1.16117,1.9325,0.364929,-1.71934,0.952181,
-2.95746,0.688736,0.538114,0.323671,-1.41556,-1.21944,0.163588,
0.610153,-0.649338,2.35211,-1.26795,-1.84953,-1.75735,-2.64306,
1.57717,0.0220265,0.0103791,-1.64977,-2.79825,2.03834,-0.557133,
0.0377615,-1.39329,0.486244,-0.953419,-2.60524,1.23134,-0.159096,
0.639704,-0.630063,1.35308,0.0597129,0.180093,-0.371443,-1.95634,
-1.43237,-1.32898,0.0279336,0.513589,-0.548316,-0.341833,-2.80069,
-1.6459,-1.22482,1.26139,1.54951,-1.55651,1.90399,0.828751,
1.7175,0.400306,0.279107,0.0334054,0.142716,-2.04944,-1.7652,
-0.00267326,0.995318,1.57577,-1.71619,1.14235,-1.68272,-1.62771,
0.845691,1.09014,-2.37469,1.36598,2.10708,-0.442586,1.89699,
-0.629792,-1.4712,-1.23952,-0.87915,1.0015,1.42625,0.86547,
2.35683,1.18528,1.10488,1.17476,-2.28466,1.24231,1.71328,
-1.74069,-1.1416,0.245748,-1.64809,-1.25945,0.731182,-2.3487,
1.90031,-0.219245,0.932499,-0.969939,-0.267656,-0.716369,1.5162,
1.46095,-0.205534,-0.430494,-0.14449,0.193919,0.474757,-1.55394,
1.56419,1.34297,-2.63133,-1.42575,-1.21797,1.20138,0.269938,
0.982508,1.62955,-0.167689,-0.481218,0.45874,0.462906,0.628256,
0.11801,-1.51566,-0.0878801,-0.764018,1.66366,0.271145,-1.46531,
-2.6086,-0.0390124,2.4345,1.40083,-0.223069,0.347076,-0.365954,
-1.25417,-1.84216,1.74524,1.96391,0.554131,-0.814317,1.07802,
-0.869484,0.178107,0.737211,1.73616,0.280671,0.493709,-0.614227,
0.344982,0.423152,-0.922369,-0.656322,0.783616,-0.996865,-0.0885244,
0.507828,1.97186,0.50481,1.75967,-0.0238708,-0.804888,-1.05328,
1.37905,0.911382,0.377082,1.59374,1.63181,0.0362526,2.5902,
1.10722,-0.0327204,-1.59959,-0.306766,0.893943,0.160601,1.28622,
2.24496,0.265455,-1.76739,0.100723,1.13332,-0.264598,-1.70754,
2.51643,0.0680751,2.70781,0.738301,-0.330487,0.72786,1.82085,
2.91607,1.17086,-0.873147,-0.941344,-1.06802,0.527669,-1.21049,
2.74723,1.545,-2.62611,-0.245845,1.50797,0.243254,-0.226819,
-0.243167,-0.0184998,-0.0968287,1.24897,2.41846,-1.11677,-1.65144,
0.275912,1.28631,-0.753348,-0.510696,0.178691,1.13305,2.07298,
-2.58881,-1.06613,-0.5262,-0.374224,-1.57582,-0.419827,-1.54492,
1.5929,1.0033,-1.69979,0.210447,-0.119963,1.05157,1.80786,
-0.0355667,0.235537,0.529933,-0.0197438,-1.92195,1.39201,2.71368,
-0.0108004,-0.88637,-0.582492,-1.08318,-0.829425,-1.55715,0.737648,
-0.616625,-0.876368,0.164552,0.0482742,0.328999,1.46686,-1.09353,
0.298759,-0.453623,-1.18718,0.286107,1.01694,0.539601,-1.9202,
1.01667,1.2305,-2.13875,-1.9016,-2.66583,-1.8759,0.684655,
0.826577,0.345944,2.06857,-1.53664,-0.38555,-1.19817,-3.0163,
0.36486,-0.434159,-1.56847,0.184648,0.462899,1.12295,-0.367082,
-2.37467,-1.78017,1.62929,0.0538985,-0.0788368,0.987891,2.39552,
-0.040754,0.0335082,-1.0757,1.15725,-1.12547,-0.711433,-2.52774,
-2.03724,-0.985953,-1.681,-1.90258,-1.3974,-1.30412,0.0260692,
0.219,-1.21289,-2.19105,1.8124,2.54925,0.113671,-1.62163,
-1.00745,-1.01291,0.458783,0.859619,0.043274,1.09321,0.592804,
-0.488974,-2.02226,-2.86326,1.93512,-2.03437,0.705101,1.87333,
-2.82989,-1.26874,-2.2388,-0.316603,-2.30141,0.564795,-0.364787,
-2.1737,1.02614,1.50855,1.66924,0.187115,0.658456,-1.95627,
-1.41411,0.152629,-1.10938,-0.113808,0.383981,-0.430242,0.396828,
-0.379868,0.0893835,1.38776,0.348084,0.736027,-0.443517,1.65629,
0.364141,-1.44033,-0.65924,0.977572,-1.274,-0.0682322,2.33155,
1.19469,0.299804,1.91609,-0.299956,1.37774,1.56492,-0.350041,
-0.40387,-1.28353,-0.235919,-1.97017,2.15478,-1.14586,0.970431,
-1.4132,-1.62361,1.09403,0.96526,-0.756288,-1.01477,-2.04568,
2.96304,0.579481,-0.221352,-1.38745,2.40437,-0.0428378,2.02277,
-0.462873,-0.0343335,0.155063,-0.844604,2.50809,0.924579,2.63324,
-2.11094,0.0908059,0.683591,1.44945,-1.25197,1.89524,-2.51431,
-1.687,-0.187776,1.79797,0.739876,1.37167,-0.982464,1.93641,
-1.06194,-1.11823,-1.23144,0.138477,-1.29643,0.799361,-3.03365,
1.29289,-0.147414,0.87785,0.390397,0.395934,-1.02931,-2.45593,
2.60735,1.13154,-2.68055,-0.880798,-2.47771,1.68055,-1.9642,
-1.23286,-0.649176,-2.15949,1.20671,-1.21264,1.007,0.911451,
-0.0599576,-2.02003,-2.90992,1.52098,0.45225,0.696622,-1.21363,
0.86189,1.06861,-0.0691806,-0.356722,-0.960547,-1.19816,1.8554,
0.252481,-0.326542,-0.916883,-0.810119,-0.302144,1.61789,-1.58085,
1.89062,0.736792,-2.22381,-0.699933,-1.62138,1.39398,2.00565,
1.25696,-0.197579,1.05597,-1.0634,-0.910793,1.01124,-0.139477,
0.810242,-0.668404,1.03663,-1.9641,-0.0752068,1.10482,0.630968,
-0.490213,-1.34857,-2.13744,0.578672,2.44952,-0.596383,2.11201,
0.321128,1.26566,-2.35541,1.64375,-2.85319,-0.346581,2.99612,
2.81997,1.49358,-1.66761,0.110697,-0.569519,-1.09059,-2.88641,
2.49432,0.0634442,-0.414135,-1.39292,1.29279,-1.7452,-0.0530814,
-0.0799101,0.33796,0.207497,-0.422032,0.398294,0.751034,-1.11315,
1.93955,0.640115,0.413649,-0.954503,1.1075,1.29634,-1.8178,
-1.73874,-0.366456,-0.362264,1.46814,0.179487,0.431176,0.281094,
-1.79978,0.346345,-1.39105,-1.05618,0.306014,0.317744,-2.06183,
-2.02848,0.00195299,2.7793,2.01721,-1.88639,-1.98077,1.95121,
-2.01761,-0.815175,2.41002,-1.03324,-2.89311,0.398491,0.580304,
0.683118,-0.580604,-0.753744,-0.480729,-0.0234387,1.00013,0.0518367,
0.0320456,-0.907393,-2.11616,1.74315,0.610655,0.133266,2.46499,
0.416755,-0.0916882,-0.777323,0.325398,1.55699,-0.213945,1.18505,
-1.6828,-0.844041,-0.306242,0.854081,-2.66507,-0.672712,-0.161452,
-2.79019,0.719273,1.88157,-0.200237,2.73517,-0.168773,-0.0959257,
-2.15288,-1.05738,0.0859386,0.443917,2.82968,-0.845696,1.41223,
-2.35306,-0.203431,-0.600015,-1.84651,-2.88783,-1.73245,1.93331,
-1.66638,-0.45011,1.38818,-0.216418,0.307265,1.31998,0.312137,
1.04449,-0.135854,2.18778,-0.250323,2.79178,-0.812641,-1.79649,
-0.422114,-0.560225,2.06145,-1.69961,-2.37471,1.40806,0.882456,
-1.67073,-1.9652,2.09897,1.11753,2.6367,-0.84604,0.665027,
-2.47017,-0.959522,0.934166,0.00185019,-1.48957,-1.88572,1.78977,
-2.52546,-1.12033,0.758897,0.570959,-1.09211,0.182105,-1.04436,
-2.6189,0.318465,-1.84538,-1.57094,-0.544473,-0.78278,1.83277,
0.0998418,-0.0518543,-1.19432,-0.602965,-1.76756,-0.393515,-0.0691137,
-1.57622,-1.62063,0.515847,0.482286,1.06384,0.246501,2.56865,
-2.1662,-0.712842,0.162731,1.455,2.90898,-0.741336,-2.64583,
-2.46685,-0.215459,0.865279,1.62356,-2.56896,-1.82949,1.74349,
-1.16414,-0.986039,0.95299,-1.96993,-1.84933,1.73777,2.35043,
0.596261,-0.079652,-1.93446,2.01548,1.22624,-0.326894,1.20037,
-1.68151,-0.326953,2.94623,1.66239,1.9869,1.40855,0.0295211,
-0.60422,-0.612471,2.51002,-1.5534,-0.907829,0.611936,2.68738,
-1.72123,-1.7605,0.0504955,-1.97091,-0.59078,0.418451,2.55065,
-0.697278,0.0792418,-0.829299,-0.173596,-1.10603,0.766242,2.05374,
-1.69908,-0.0917696,-2.27687,-1.55727,-2.68878,0.223949,-2.38229,
-2.07681,-0.054463,-2.57368,-1.29427,-0.557672,0.84786,2.80618,
0.18047,-0.137242,-0.933305,1.69983,0.998685,-1.49698,2.86707,
2.33944,0.255313,-0.0543471,-1.62979,1.57022,1.49259,-2.85801,
-2.55132,-0.855719,2.40983,0.956762,-2.70709,1.27996,-1.68256,
-0.96482,0.0645584,2.50818,0.382907,-2.62251,1.1375,-0.00335749,
-1.50749,-0.755287,1.05323,1.62358,-0.813645,-0.92778,-0.195734,
-1.26855,-0.858452,0.630584,-1.87533,-2.03479,-1.02168,-2.34176,
1.01048,0.118011,-0.960003,0.928212,1.7616,-0.177842,-1.22638,
-2.35901,-1.13092,-1.9585,-1.05942,-1.63637,-0.1981,-0.0685644,
-1.90569,-0.250184,-0.9748,0.561916,-1.11079,-1.52036,-0.179263,
0.740636,0.12098,0.604405,0.357094,-1.39739,0.335513,-1.20802,
-0.945495,-0.463147,-1.48657,-1.20775,0.567346,-1.83914,-1.17446,
2.71101,-0.159033,0.372774,-1.63455,-0.959728,-1.35866,1.65865,
2.45063,0.607662,0.311145,-0.0869481,2.64282,-1.51211,1.99966,
1.76989,1.10247,0.0991984,-1.02763,1.91138,1.83528,-2.21911,
1.90349,0.197716,-2.0572,-1.71041,-1.99705,1.36374,-2.51769,
2.75928,0.872804,-2.73434,-0.609199,-1.60379,-0.112645,2.84464,
0.479743,1.28771,2.8232,-1.90444,-2.20033,-1.70434,-1.81836,
-0.819024,-0.78015,1.13607,1.3615,-2.51132,-1.68127,-1.61574,
-2.65474,-1.22556,2.75952,1.82696,-1.31346,-1.86796,1.32012,
2.80494,1.73769,1.85629,0.118498,2.12511,-1.9856,0.807107,
0.641728,0.14478,1.98366,1.10085,0.974485,-1.4881,-1.15651,
0.215983,0.924014,2.72177,-1.08575,2.51514,0.534561,0.205457,
-1.22282,-0.239931,0.503131,-0.815645,1.12555,1.59344,-2.2808,
1.41334,0.0806005,2.08752,-0.701408,-0.279101,-1.61094,-0.622876,
0.572459,-0.888707,1.46668,-0.8622,0.975401,1.94373,-1.6949,
1.6148,2.05923,1.10575,1.71405,-0.748618,-0.913503,2.14779,
-2.3187,-1.61587,0.418433,0.0721703,-1.20367,1.00823,2.436,
0.404524,-0.846332,-0.210289,0.183708,0.394628,0.222121,-2.41689,
0.448806,1.14115,2.16292,-0.997421,1.53904,-1.47933,2.39509,
2.12438,0.27685,2.84613,0.254386,1.35258,-2.05185,-0.288076,
2.17967,0.824408,-0.930478,-1.27986,-2.77863,-1.94176,0.957581,
-0.12167,1.41236,1.79328,-1.4828,2.08283,1.79789,-2.98816,
-0.893687,-1.61329,-2.20943,1.3232,-1.90525,0.814109,2.0281,
0.176048,-0.786587,0.579047,1.54209,-1.41461,1.12419,1.3043,
1.48005,-0.00671548,1.71123,-1.8132,0.636943,1.92158,1.70449,
0.628166,1.83346,-2.512,-1.10956,-1.86901,-0.401714,-1.05662,
0.0444685,1.14789,-2.68972,-1.3972,0.855578,1.57835,-1.47158,
0.718145,0.60025,1.38396,0.0854621,-0.940115,1.75369,2.50424,
0.0794001,0.531676,-0.375978,0.59629,1.81058,-0.793268,-0.419694,
-0.84453,-1.22263,0.151001,-1.31434,0.724793,-1.8819,0.261895,
2.68501,0.406408,1.28031,-0.832067,-0.368203,-1.26112,2.02148,
0.218351,-0.573836,2.93387,-1.22032,0.921771,0.457433,-1.4168,
2.59528,0.00780456,-1.34591,-2.05215,-0.103627,-1.99986,1.89005,
0.851854,-0.0296792,-0.402991,-0.703482,-0.983072,0.533318,1.32253,
0.651511,-0.357604,0.35135,0.0561446,1.63823,-0.106826,-2.6095,
-1.26094,-0.347001,1.53161,-1.13571,-1.88595,0.507422,2.41285,
1.96624,1.20258,0.645125,-1.09814,1.65812,1.90515,1.26519,
0.938625,1.12963,1.554,0.0669025,1.50418,-1.15283,-1.48697,
-0.0535302,1.09841,1.96698,-1.15538,2.77265,0.483394,1.33588,
0.22108,-0.460611,0.466333,1.32087,0.196949,0.199842,-1.19679,
-0.158278,0.604239,-1.91073,-0.260364,1.34333,0.688312,0.185508,
1.60302,1.17581,-1.766,-1.47794,-0.0437568,-1.29685,1.23951,
0.7868,-0.188876,-0.0154946,-0.207968,-2.39246,0.47742,0.825886,
0.285964,0.412128,-2.3853,0.00524647,-2.34978,-1.38394,-1.56726,
2.2945,-0.0074846,-1.00441,-0.778925,-0.663563,-0.0376441,-2.85926,
0.346958,-0.42199,0.482348,-1.50778,0.930987,1.31824,1.84254,
1.20037,0.468689,-1.75356,-1.67243,-2.69291,-1.3047,2.67913,
0.0665743,0.725299,1.49211,-2.01669,1.95536,1.87037,1.21135,
2.91163,1.72081,1.66053,-1.05846,-2.42221,2.05075,-1.79465,
-0.0691165,-0.0419648,-0.133419,-1.12853,-0.639573,-0.113771,-0.411189,
1.70735,1.85374,1.33165,0.0919322,-2.04094,-1.86376,2.5054,
-0.259585,0.521129,1.64539,-1.42785,-1.91789,-0.429137,-0.535112,
1.80769,0.861972,2.47869,-0.482189,0.183508,0.609367,2.33136,
-2.9652,0.648599,2.81392,1.1604,-1.73761,-0.309878,1.83722,
1.65938,0.482677,-0.720793,-1.62196,-1.1904,-1.21499,1.51272,
1.98145,0.897354,2.81832,-0.402208,-0.555307,-0.193792,0.831918,
1.32603,1.35084,0.701392,-0.0714605,-1.21699,0.363381,0.604196,
0.748144,-0.474558,-1.38583,1.7166,0.0243277,-1.48646,-0.298846,
-1.23448,-0.850027,-2.04124,1.68615,0.668203,0.785712,-0.774634,
0.230266,0.201674,2.17308,0.584196,0.976788,0.459426,1.12509,
-2.54337,1.85948,1.7606,1.64156,1.78328,-1.18477,1.81722,
2.88783,1.95912,0.578279,0.13448,-0.767902,-0.577664,-2.88211,
1.4963,0.0664899,-0.859117,0.959239,0.156326,-1.06725,-0.736853,
-1.08253,-2.0467,-1.9474,1.80777,2.30435,2.00065,2.01912,
-1.07497,-0.406258,-1.07688,-1.79441,-2.74817,0.721039,2.89701,
0.373088,0.466177,0.400647,1.52533,0.85247,-0.481019,0.760637,
1.07414,1.53163,2.91229,-0.263125,-0.216893,-0.561725,1.13063,
1.38948,0.528945,1.3848,-0.492318,-2.84842,1.72357,-1.04586,
2.32989,0.1104,1.93361,0.788214,0.83894,-1.38886,1.3236,
-2.67513,-0.990545,-2.61938,1.4671,2.06012,1.81237,-2.35581,
-0.915045,-0.0570963,-2.75223,0.824093,1.45876,1.86614,-1.98456,
-0.900756,-0.608822,0.369098,0.270371,-2.28979,1.67007,1.11598,
-2.89966,0.285105,0.391264,1.10634,-2.33292,0.973557,-1.11722,
0.45769,-0.474077,2.83898,-1.32581,1.15784,0.833949,0.702709,
-0.366236,-1.43624,-2.61921,0.529511,-2.28003,1.72035,-0.353484,
2.32903,0.127794,0.352861,-1.96655,1.43428,0.955703,1.05787,
2.8319,0.13382,-0.605139,0.671793,1.23427,1.15936,-0.00825775,
-2.25621,-1.20353,1.69662,0.916671,-1.01883,0.479585,-0.43011,
-1.23868,-1.21018,1.02285,0.927152,2.15421,1.07867,0.478514,
-0.39526,0.18491,-0.114556,1.0915,0.542005,0.570695,-0.890998,
-2.16534,-0.230605,-0.502768,1.60608,1.23775,1.55747,-0.420698,
-1.34239,-0.725283,-0.923745,0.613521,1.67507,1.68361,-2.14904,
-0.587569,-1.84283,2.04741,2.08762,-0.0543177,-0.179581,-2.18991,
1.83583,0.938922,2.16013,-0.261568,2.18068,0.670893,0.429491,
1.63064,-0.0458463,-2.29288,-0.321191,-1.95777,-0.410591,0.666925,
-0.627669,-0.114136,0.345301,0.490947,-1.14972,-1.00837,2.64206,
0.519068,-1.5726,-2.29617,0.780804,-2.30106,1.68184,2.11983,
1.5832,-0.480643,-2.26241,1.45544,0.207205,0.747626,1.06107,
-0.598576,-1.69363,-2.26219,1.31407,-0.682019,-1.8092,-2.21669,
-2.20292,0.485109,1.35454,0.0252602,-0.270144,-1.59937,1.00142,
-1.56687,0.261037,-2.72305,-0.52169,-0.561126,0.273211,2.17762,
0.668358,1.51682,1.01642,-0.154046,-2.91363,1.67336,0.558479,
2.50394,1.50623,-2.88235,0.485752,-0.540755,-1.63921,-0.732575,
-0.568783,-0.452737,-2.25703,0.921455,-0.945003,1.79117,2.80505,
0.732883,0.269223,0.822025,-0.665729,0.0244263,-1.37645,-1.55838,
-2.17902,-0.542238,-2.27662,0.463645,-0.819491,-1.30559,1.43401,
-1.48718,0.0632483,0.930256,0.497623,0.536247,1.31997,-2.28852,
-1.88107,-0.742339,1.57177,-0.935885,0.591504,1.28478,-0.496125,
-0.795242,-1.86459,-2.0822,0.0479846,0.735674,-1.21583,0.303202,
-1.72928,-0.620867,0.0326174,0.449111,-2.87713,0.344699,1.39812,
0.185947,0.22295,2.23572,-1.06957,-0.154091,-0.769907,2.94157,
-0.102111,0.00815044,-1.49832,1.78181,-2.80204,1.85241,2.23309,
1.21712,0.628894,-1.309,-1.70927,-2.20128,1.63548,-1.12551,
1.08389,1.29582,0.2898,-1.87045,0.523404,1.37234,-0.1471,
2.73086,-0.161922,-0.227669,-0.192681,-0.871528,0.641195,0.731555,
-0.73673,-1.30716,-2.29708,1.12853,0.180643,-1.49473,2.68918,
-2.1607,-1.11572,0.650731,1.00383,-0.905694,-2.0192,0.72517,
0.210939,-1.07284,-1.17945,-0.64644,-1.53554,0.061449,-1.52579,
0.797577,0.964206,-1.30884,1.757,-0.201724,-1.3573,-1.59365,
0.0297031,-0.108115,0.741853,1.19803,0.420143,-0.028461,-2.24461,
-1.96853,-0.900831,-0.979444,0.686952,-1.83083,0.725315,-2.2376,
-1.29619,-1.28185,1.40012,2.069,-1.19684,0.931971,0.0969539,
-1.54785,-0.0851328,-2.40255,-0.948909,-1.99639,0.899813,2.10231,
-0.654577,-0.110429,-2.2124,-1.40896,1.60992,-0.0823959,2.50846,
-0.166275,0.38461,-0.602008,1.58515,-0.908799,-0.63094,-1.13701,
-0.990441,-1.48334,0.870917,1.01034,1.48675,0.659423,-2.69147,
-2.36258,-1.92132,2.05328,0.810817,-2.89476,1.457,2.13703,
-0.918722,0.108695,1.27622,0.774597,-2.07346,0.644501,0.411245,
-0.887917,-0.891106,-2.90559,-0.973362,-1.69467,-0.348147,-1.17682,
0.444461,-1.98847,0.359463,-0.973924,-2.57596,-1.04579,-1.38252,
1.51383,-0.257588,0.417144,-1.26018,2.70091,0.0672148,-1.86497,
1.45746,0.903243,2.26655,-0.917687,0.94132,-1.50907,-0.747188,
2.49964,0.279211,-1.53722,0.743587,-1.2968,-0.51392,-1.1448,
-0.517296,-0.716182,1.71746,-1.67866,1.3225,0.161139,1.85037,
0.575063,-1.62974,1.83838,-1.71574,1.19464,-0.533388,-1.39379,
-0.380486,-1.28969,-0.810403,0.808421,-1.9245,-0.0239562,1.27896,
-0.463819,-0.0277803,1.77761,0.287615,1.49354,1.31931,2.09031,
-0.815421,-0.645417,-1.68998,-1.17635,-2.82534,-1.07404,-0.903911,
1.30678,-0.0647966,-0.0465795,0.725531,0.00921302,-0.879306,-0.522683,
-0.99602,-0.941835,2.77905,-0.345858,0.653934,-0.690824,-2.14272,
-1.29944,-0.567807,2.15308,-0.244818,1.60271,-1.11329,1.34245,
-0.381833,-1.42633,-0.319602,1.0744,1.5135,-0.805982,-0.34014,
-2.96539,-0.384111,-1.5079,0.3227,2.91299,0.423362,0.527264,
-0.48519,-1.2018,-1.38656,0.690436,-2.63069,0.0142781,2.55747,
-1.4274,-0.362947,-2.46206,-0.697794,0.543299,-1.0956,-0.382097,
-1.33224,0.248072,-1.78628,-1.77189,1.00551,-0.420148,-0.824761,
1.35579,1.14849,-0.20117,-0.102276,0.14559,-2.00119,1.98385,
1.4214,1.18867,0.37856,-0.963932,-2.04964,1.39231,-2.95024,
2.80056,1.04359,1.57048,2.05763,-2.22244,-0.48167,0.707076,
1.13926,1.49807,-0.17614,1.92273,-2.52782,-0.715605,-1.56209,
-1.40521,-1.59946,-2.34573,-0.321025,-0.249702,0.537777,-2.3777,
0.641208,-0.929592,-2.45536,0.950089,-0.175902,1.59787,2.94958,
0.256638,0.485257,2.83832,-2.01512,1.7272,-0.40365,2.64067,
0.817719,0.521203,0.541362,-1.8686,-2.10725,-0.0622674,2.55726,
0.316608,-0.527838,-2.46344,1.35963,2.3361,-1.85935,0.130705,
-0.685873,-1.09559,1.88832,0.916723,-1.72489,0.553487,-2.83187,
0.165782,-1.48413,2.19897,-1.70674,-1.50268,-0.861567,-2.51816,
0.0469776,-1.24292,-0.743717,-1.37223,-1.58507,-0.36093,0.343609,
2.86798,0.975649,2.56435,-2.04827,-0.828975,-0.789802,-2.41944,
-0.0994445,-1.73349,0.356958,0.104737,-2.74618,-1.34626,0.409953,
2.25132,0.729842,-2.94448,1.96133,-2.40767,0.946933,-0.426476,
-1.47097,-0.799334,1.54422,-0.35602,0.26224,-0.134115,2.37431,
-2.72288,-1.83727,2.67016,0.490068,0.884003,-0.856427,0.125547,
-2.62049,1.48498,-1.40726,-0.232671,-0.137026,0.463833,1.88601,
1.29454,0.125925,-2.86777,0.887194,-0.918871,-1.59569,-2.63348,
-0.15578,-0.685345,1.00112,-1.27436,0.427039,1.11701,-1.30219,
0.468682,-0.503301,2.38916,-0.0496108,-0.295999,0.252662,-0.356035,
-1.28704,-1.78024,-1.54678,-1.37801,2.71842,1.2944,1.61025,
0.79473,-0.0688561,1.21315,0.483702,0.267657,0.434293,2.2412,
-1.6341,-1.6159,0.35499,-1.40271,-1.93946,0.772227,-1.68884,
-1.57989,-0.338739,-2.3031,0.333817,-0.683639,1.69508,2.69879,
-0.280542,-0.0554175,-2.70997,-0.195336,0.559187,-1.18383,0.336356,
2.53579,1.20568,2.91842,2.07824,-1.88051,0.858309,1.4745,
0.0324114,0.465775,-2.2614,0.875896,-0.143071,-0.316414,-0.671861,
1.84605,0.357398,2.15213,-0.205046,-1.80395,-1.93477,2.6779,
0.620724,0.35606,1.40139,-0.25715,1.39648,0.386456,-1.96148,
1.36352,2.03435,1.19164,0.657901,2.8654,-0.216163,-2.69875,
1.36394,1.11571,1.53199,-0.199822,-2.41618,-0.467048,3.00143,
2.39866,0.710353,0.780885,-0.537623,2.57626,2.03224,1.63007,
1.63795,1.02557,-1.6048,1.86189,2.64528,-1.01561,-2.3613,
-1.13428,-0.296899,-1.09402,1.10753,2.46084,1.2378,-2.88928,
-1.98934,-0.875843,-1.08482,1.32811,1.7693,-1.50537,-2.27943,
0.908139,0.0549569,-1.51745,0.510269,-0.367969,1.77346,-1.08077,
-0.769726,-1.22353,2.78821,-1.74394,-2.86539,-0.546133,2.72088,
-0.403153,-2.01773,-2.7271,1.55513,-0.668435,1.0417,-2.36807,
-0.669896,0.00235867,-1.34595,0.866949,-2.70731,-1.17966,1.20471,
-1.05847,-1.49677,-2.51581,0.17105,-2.63485,-1.39664,1.33702,
1.48891,1.97911,0.0162209,1.11066,-2.96367,-0.433176,-1.02392,
-0.0494978,1.08887,0.475439,0.859794,-0.0119272,0.709874,0.249705,
-0.809602,-1.40856,-1.70647,0.930102,1.06502,0.826205,-0.462864,
1.54461,0.752444,-2.34283,0.497335,0.0665126,1.70998,0.838265,
1.46329,0.251929,0.219082,-1.249,1.14444,1.68564,-2.20501,
-0.371011,-0.827529,2.34574,1.36984,-2.059,1.52597,2.43839,
-0.722284,-1.39081,-0.816806,-0.934876,-1.40372,-1.89315,-2.76559,
-0.683492,-1.00724,0.913795,-1.4278,-2.4747,-0.266341,0.394347,
-1.41809,-1.23078,2.63725,0.726649,-0.913507,0.818606,-2.72957,
2.31942,1.91465,2.92776,-0.277998,2.70438,-1.23947,-0.740697,
0.0890233,0.797146,-0.478428,1.91137,0.774806,1.84652,1.38045,
0.017442,-0.414608,-2.76169,0.0114723,1.53307,-1.45128,-2.60518,
0.0299694,-0.988874,1.53054,0.00588264,1.6018,-1.41234,1.28568,
1.34455,-0.139449,2.18508,-1.8037,-0.17548,0.331945,-2.80682,
1.89512,1.3845,-1.39174,-1.79648,-0.935348,0.213775,-1.998,
-1.5247,-1.80253,-1.45481,-1.40463,0.144261,0.50287,-2.89919,
-2.48582,-1.61863,0.540928,0.857494,1.43973,-1.19038,1.24006,
-1.20797,-0.129083,-2.19702,1.35425,0.293968,-0.00182812,0.120638,
2.5193,0.755428,0.0738728,-1.58788,-0.213586,-1.32977,-2.26599,
1.7421,0.425086,2.73818,-1.26617,1.10721,1.86583,-3.04895,
1.84095,1.25663,-0.321826,1.77732,2.5262,-1.73849,-2.03391,
1.21093,0.537282,2.2143,0.393546,2.60347,-1.13281,2.0405,
-0.764754,-0.658918,-1.62153,-1.4976,2.76365,-1.27389,2.43268,
-2.62903,-1.7191,2.79637,1.92686,0.655671,1.2341,-1.89537,
1.04148,0.625869,-0.866485,-0.752066,1.01965,0.671989,-0.479308,
-1.40181,-0.791283,-1.51383,-1.36474,-1.23103,-1.87944,-1.32598,
-1.78969,-0.917669,2.87635,0.794265,2.17414,-0.91726,-2.71043,
2.88931,1.00578,-1.28454,-0.178562,0.0455011,0.814643,1.42143,
1.05748,1.05687,1.927,-1.70287,0.954527,0.278296,2.29996,
-0.112338,-0.783589,0.403361,0.656913,-2.66296,0.373844,-1.09808,
-0.538987,-1.25134,1.74613,-1.51168,-0.138663,-0.670777,1.21419,
-1.85471,-0.502957,-2.77659,-0.436982,-2.52759,1.86422,-0.0572193,
-2.85366,-0.0707123,-1.94551,-0.453367,-2.34315,-0.374678,0.359875,
-1.50988,0.13506,0.198575,-0.358144,0.548431,0.430987,-0.112974,
-2.12856,-0.358374,-1.13463,-0.0733554,1.5196,-1.6108,-3.01048,
-0.683096,-0.248563,-0.676022,1.4355,-1.91326,1.24544,-1.1498,
-0.13709,0.265599,0.437553,-1.33059,0.40211,-0.0886085,-0.313352,
1.99465,0.0974733,-1.85232,1.29453,1.07984,0.781952,-1.35771,
-1.65785,-0.94961,-2.32679,2.07407,-2.33944,0.170619,2.02447,
-1.80388,0.460496,1.26862,1.1521,-1.57833,-0.137221,0.707371,
-2.31008,-1.03475,0.960121,-1.51517,0.215408,-1.52326,0.429358,
-0.221337,-0.937032,-0.838354,-1.81457,-0.736702,0.527103,-2.19528,
0.694109,-0.371781,1.90018,0.462294,2.83876,-0.642355,-1.62643,
-0.791329,-0.579943,0.237864,-0.8975,-0.361408,0.568356,2.63465,
-1.25397,-1.12905,-2.30009,1.15825,-1.86886,0.79965,0.62212,
-0.20501,0.131228,1.00923,0.929546,-0.497112,-0.85313,-1.06004,
0.749755,0.0344225,1.94001,0.616427,-0.942523,-1.02092,1.58097,
2.40077,1.28323,2.40936,-0.764284,2.80305,1.0191,1.99427,
2.00813,0.419544,-2.51301,0.293843,1.38719,-0.844991,3.04496,
-0.133263,-0.585928,-1.74058,1.01295,2.7221,-1.03713,1.74025,
1.93268,-0.0771355,-1.60505,0.849767,1.80711,-0.0841931,-0.732377,
2.55473,0.402311,-2.37937,-1.73109,-0.242035,1.10179,3.03362,
1.80917,0.244779,2.1455,-0.372985,-0.862387,-0.288559,-2.9721,
0.490734,-0.174869,1.93643,0.631099,0.0617379,-0.767253,0.992725,
-0.550606,-0.145759,-1.36465,-0.720438,-1.80585,-1.88829,1.68743,
-2.13446,-1.63937,-1.61073,-0.537787,0.168215,-0.626673,0.538947,
0.358585,-0.966762,-2.07959,1.82857,2.95736,-1.86412,-2.6756,
1.58551,1.76089,-1.71149,-0.258346,-0.117071,1.28871,1.51465,
0.326512,0.295502,-1.23286,-0.893617,-0.480895,0.888169,-0.545916,
-1.47608,-1.28419,-2.85473,2.09002,-1.75209,0.943528,2.28348,
2.82742,1.31604,-1.27996,-1.39667,-0.737982,0.947235,-0.562531,
0.543473,-0.644388,-1.0926,1.22293,1.6218,-1.43454,2.12336,
-2.07722,-1.10868,0.89927,1.09506,-1.04173,0.955857,-0.918532,
1.5521,0.682954,-1.57705,-0.523259,1.55615,-1.49026,2.57858,
-1.8237,-1.52506,2.79562,-0.734941,-0.310389,1.62534,2.30713,
-1.12569,-1.15117,0.775352,1.00171,-1.21711,-1.22754,0.462083,
-1.75317,-0.635827,0.302779,-1.37467,-2.23414,1.80111,-1.40846,
-2.88977,0.749081,0.601646,0.269133,1.20864,-1.37355,-2.8063,
-2.78835,1.04417,0.256292,1.20406,-2.31157,1.21475,-0.332764,
-2.83695,0.130753,-0.875927,0.513135,-2.1464,1.56583,0.83396,
-1.67293,0.0826158,0.0310942,0.469588,0.931765,1.17803,-0.758287,
-0.0971069,-1.97439,1.22535,-1.19804,-2.03207,-1.67687,-2.12733,
-1.21986,-1.14921,0.653956,-0.718646,0.550018,1.68042,1.89882,
-1.91566,-0.974778,-2.7625,0.0507505,1.58141,0.901583,0.981255,
2.66405,1.03309,-1.76851,-1.11642,-1.68456,0.0776084,-0.910696,
-2.88719,-1.42135,1.32894,0.567876,1.71426,-1.06655,-2.35272,
-2.60972,-1.54148,2.2665,1.33358,-0.505797,1.50273,-1.24059,
-1.67254,-1.82637,-0.708336,-1.48924,2.90733,1.56647,2.68542,
2.34812,1.98896,2.77424,-0.880525,-1.46453,-0.0639633,1.3616,
-2.28442,-1.7387,-2.55443,1.44893,0.158936,-0.345415,2.04396,
0.853582,-0.530307,-1.00962,1.87014,2.02656,-2.01192,1.8908,
-0.491238,-0.805279,-1.18335,-1.35719,-2.19771,-1.47868,1.52803,
-2.01765,-0.890366,1.8383,0.839469,-1.75106,0.518691,0.744047,
0.341921,-1.05116,-0.140272,0.583404,0.493058,0.723895,1.91389,
-1.85859,0.394401,1.54003,0.461815,-0.760637,-1.97955,0.740303,
-0.287253,0.134729,-1.18574,1.38987,2.41912,-0.0358775,-1.40636,
2.12336,0.666628,2.56448,1.4994,-0.968675,0.108478,-0.137294,
0.104121,0.0156462,-1.91191,-0.706767,-0.484779,0.925342,-0.0119481,
-0.12978,0.192183,0.341076,0.507367,-1.25796,0.968774,-0.478723,
-0.467689,-1.32966,2.60365,-1.84669,-2.27813,-1.54667,2.76569,
1.41942,-0.0396219,2.26718,-1.41371,-1.43258,-1.25169,2.12821,
1.85198,1.44866,-2.96209,-0.557805,2.15045,1.08796,2.42196,
0.609861,-1.21998,-2.43915,1.76998,0.0113815,1.04404,-1.06051,
-0.0861336,0.0727526,-2.84149,-0.43292,2.01323,-0.512818,1.70899,
2.59817,1.59201,-0.569255,2.0469,0.916022,-0.897666,2.37147,
1.38931,1.27833,0.0314784,-0.914628,-1.13414,-1.45164,-2.02575,
-0.293679,0.208849,0.0194235,1.85251,-1.89407,0.399868,1.89186,
0.191258,0.827926,2.61401,-1.00639,0.561777,-1.42175,-1.02823,
1.46324,1.16714,0.579872,-1.90912,1.9759,-1.70533,-0.953776,
0.472384,-0.957709,-0.950008,-0.143201,2.24847,1.82452,2.24548,
-1.44792,-1.56913,1.57343,-0.0791016,-0.152512,-1.77145,-1.77429,
0.472935,1.34391,0.392672,-1.35552,-1.35976,0.129199,-2.14102,
2.24852,1.09217,0.881739,-0.366339,1.79036,1.22193,2.57599,
0.94996,1.07966,-2.49773,1.1156,-1.51835,-1.38506,-0.837009,
2.21808,0.841035,1.1797,-1.06404,0.668748,-1.62239,-1.24276,
-0.86818,-0.339809,-0.742789,0.792721,-1.4998,1.28607,2.06075,
-2.85777,-0.971259,-1.12431,0.609079,0.281907,0.441086,0.765283,
-0.879074,-1.6372,0.105281,-1.93665,1.29818,1.56446,-2.12494,
-2.01642,-1.61446,-1.35769,-0.293476,2.42461,-2.00545,0.480804,
-2.90091,-0.854552,1.1852,-0.444923,2.85659,0.121036,0.742803,
0.617522,0.463265,-1.19648,0.256994,-0.52294,-1.59566,3.03667,
2.02685,0.199621,-1.16933,0.238958,-0.777218,0.630879,-2.69045,
0.342666,1.3684,-1.59543,-0.495908,0.93961,0.983154,0.0311398,
0.215703,-1.31816,-1.64598,0.807662,-2.31057,1.80651,1.07173,
-1.84292,-0.0940932,-0.850298,-1.05584,0.895248,-1.6278,-2.99124,
-2.47655,-1.63143,-1.60995,-1.87235,-0.390189,1.13962,2.28882,
1.38232,-0.736198,-2.40252,1.92656,-0.600541,-1.65596,-0.930243,
-2.90514,-0.187775,1.97886,1.03611,1.46448,0.686913,0.523366,
-2.03218,-1.05581,-2.65816,0.139841,1.5067,-0.230785,-1.58144,
2.01388,1.88017,-1.22283,-1.63606,1.16535,1.58919,3.00906,
-1.0231,-1.05472,0.708593,-1.85429,-1.29777,0.630382,-2.92528,
-0.475022,-0.442652,-1.32119,1.90689,-1.46993,-0.993504,1.31838,
-2.36893,0.520057,-0.803782,-0.566625,-0.575854,1.60086,-2.37594,
-2.12276,-1.44637,0.302193,0.609941,2.64625,1.06496,-1.94814,
0.532268,-1.13131,-2.16367,0.815626,-1.07887,-1.15307,1.79334,
-0.25331,-1.59697,-0.895363,-0.741004,1.00216,-1.36576,0.545051,
-2.29145,-0.377732,-2.59009,-0.18538,-0.618452,-0.00861352,-1.21644,
0.0564074,-2.08354,2.8598,0.490421,1.49121,-0.101643,-0.906822,
0.713227,-0.905766,1.49353,-0.213404,1.01556,0.186495,2.23047,
1.27146,0.716841,1.00777,-1.36581,-1.3231,1.38803,0.0756122,
-0.728715,-0.849206,0.680208,1.49864,-0.398893,-1.38762,0.690043,
-2.2461,0.706476,1.66691,0.845968,1.65108,-2.0372,2.54055,
0.3361,-1.55828,-2.16054,1.87597,0.709009,-0.419375,-1.97139,
-0.873669,-0.880621,1.49405,-0.980008,1.1923,-0.53957,2.46784,
-2.25383,-1.07347,-2.75431,-1.56257,0.620329,-0.151511,-0.188026,
-2.74351,-0.944125,2.08744,1.30356,-1.22017,0.632466,-0.872084,
0.0946457,-0.997299,2.35743,0.153372,0.437289,-1.90728,2.18409,
0.545525,1.05467,-0.148953,0.547938,-2.95605,-1.64215,-0.607441,
1.11546,0.372271,-0.838703,-0.751333,-2.44736,0.316327,2.1244,
-0.135605,0.674825,-2.09491,1.35179,-0.145943,0.938118,0.276623,
0.831535,0.616041,-2.61508,-0.459459,2.6731,-1.3626,3.00665,
2.2552,1.24654,-0.702422,1.2661,0.977919,-1.88723,0.724205,
1.01226,-0.446494,-1.69999,0.0595119,0.334677,0.150288,1.19686,
2.79486,0.716777,0.995565,1.51768,1.90762,-2.08333,-1.51938,
-2.02434,-1.39537,1.46986,-1.43057,0.461368,-0.799245,2.83479,
1.94743,0.549552,-2.91629,2.07418,2.77852,2.01179,-1.15126,
-0.501763,-1.96614,-2.75407,1.98439,-2.68452,-1.71977,-1.38942,
-0.255915,-0.328411,-1.58947,-0.147637,1.48626,1.73544,2.61196,
-2.59365,-1.70774,-0.501815,-0.103474,2.0625,1.14949,2.60067,
2.65435,1.57886,2.92448,-1.15434,1.27279,-1.0035,-0.575106,
-0.161317,-1.07357,-1.23713,0.728459,0.294753,1.75462,-0.834792,
-2.1459,-1.15164,0.517842,-1.20196,-0.0206419,1.37409,0.920357,
0.929445,1.47701,2.82361,-0.534703,1.28084,1.67558,-0.574674,
-0.981467,-0.821183,-1.64379,0.886844,-2.90062,1.98571,-2.94492,
-0.907732,-1.24829,1.6975,1.48849,-1.49913,-0.107459,2.78278,
0.145306,-1.19515,-2.4942,-0.698497,2.34192,0.169416,-2.94447,
2.24417,0.992832,-2.28054,-0.682772,-1.91442,-0.536843,-1.69982,
-0.137605,0.567036,0.524289,-1.35419,-1.43044,-1.34876,-2.24461,
2.58137,0.774749,1.6552,-0.136861,-0.816601,-1.05988,-1.336,
2.25961,0.175531,1.65673,0.770259,2.21935,0.522262,0.582042,
0.135849,1.462,1.43833,1.69218,1.86551,-0.678605,0.411872,
2.65553,-0.0220004,0.291585,1.52912,-1.2944,-0.99147,0.475894,
-1.79888,-1.92697,1.71778,-1.19693,1.58166,0.191473,2.78621,
-1.75118,-1.77039,1.84913,-0.705903,1.53425,0.735514,-0.833671,
-1.95042,-1.66309,0.295296,-0.783204,2.36048,-1.30678,-0.0461172,
-0.592874,0.157718,0.200572,1.235,2.16876,0.710831,0.0661474,
-2.3384,-0.148308,1.07168,-0.523013,0.399106,0.0403855,-0.0779286,
-1.84019,-0.912018,-1.26745,0.727555,1.84494,1.99805,-1.97892,
1.02569,0.919111,-0.674483,1.63656,2.15178,-2.01443,1.65231,
0.470037,-1.30452,1.98297,-0.221464,-0.439887,0.57652,-2.21694,
0.708318,-0.984743,1.07972,-1.93807,-0.817917,2.05143,-2.31733,
1.22277,1.63064,-1.03867,-0.515152,-1.86643,-1.26482,2.31583,
1.15647,-0.160175,-0.657402,-1.32835,0.941445,-0.0742965,-0.975096,
2.54024,1.4603,-1.08675,0.931913,-1.33773,1.25114,1.35447,
2.51802,1.32641,-0.252726,-0.342544,-2.30959,-0.0310409,-0.202087,
0.0980609,1.51858,1.76812,-0.232608,-2.30097,-0.960855,1.12264,
1.08662,1.96486,-0.239371,1.86973,0.223715,0.740759,-2.63832,
2.01717,0.0512413,2.14477,1.11907,2.22633,0.665779,-1.1078,
2.90183,1.81718,-1.03587,1.41235,-0.905533,0.81675,-2.00332,
1.67931,-0.189563,-1.46897,0.15766,0.629199,-1.81958,-0.71107,
-0.761793,-0.649107,1.021,0.0300596,-0.542094,0.412736,3.01543,
1.30386,1.82563,-0.986449,0.498714,1.37443,0.435925,-0.58132,
0.440747,0.296328,-0.0651355,0.817303,-1.23027,-0.418068,-2.88528,
0.90318,-0.379279,1.22547,-1.05242,-2.46225,0.373483,2.35284,
-1.11396,-1.53868,-2.67606,-0.859577,2.57802,1.75116,2.25325,
0.527145,0.0775377,0.72539,-0.984,-2.87675,0.0403836,-2.41612,
-2.90561,-1.07345,-0.941531,0.226024,-2.60446,-0.900228,0.678833,
0.291253,-0.706141,-1.21296,0.849968,1.85333,1.23993,1.54597,
-1.48653,-0.22012,-0.013249,0.486014,-1.12519,1.10913,-2.5685,
-2.63583,0.774518,2.61066,1.90912,-0.738738,0.464561,1.49489,
-1.23667,-1.56628,-2.73187,-0.492922,-1.36673,0.405096,-2.64319,
1.50665,-0.129391,0.55796,0.0817215,1.67596,-0.133611,0.0911162,
1.90821,1.58754,-2.67188,0.143072,-2.07007,-1.66149,0.152782,
-0.0424446,-0.496219,1.60034,-0.599186,-1.67869,-1.16505,-1.30168,
-1.42154,-1.07737,-0.410252,0.394584,-2.20057,1.76994,0.21738,
-1.68422,-0.0117261,-1.62271,-0.459451,-0.467256,0.839083,-2.38299,
-2.33701,-1.87928,-2.14753,1.46837,0.989562,1.58769,-2.63067,
1.71294,-0.126382,-0.458186,0.606278,0.00448221,-0.490222,-1.11599,
0.405286,-0.840552,2.59292,-0.848179,0.0570285,-0.316122,-1.22271,
-0.226389,-1.08152,1.54893,0.102378,-2.63106,0.0587351,-0.263168,
-1.99889,-1.24826,1.32989,-2.02387,-1.91378,0.456557,-1.50864,
-0.0377649,-0.657876,0.880446,1.4753,-0.520331,-0.827114,-3.00325,
-0.553949,-0.919333,2.57133,0.142747,1.08962,0.83703,-0.434829,
2.07243,0.199436,1.48517,-0.672204,2.14544,-1.64576,-0.786778,
1.39757,0.473155,2.4502,0.517437,-0.188103,1.42547,0.89079,
1.74853,1.49297,-1.22238,2.07893,1.52128,-1.5101,-2.22296,
-0.198421,0.371387,-1.99845,0.164463,-0.370074,-1.27075,-2.32399,
-1.78438,-0.593099,0.00586152,-1.24,2.36839,1.83161,-1.65576,
0.0291602,0.31566,-0.928374,0.457342,-0.974538,0.4123,-0.596508,
-2.21558,-1.10792,0.285086,0.315482,-2.68713,-1.04858,-0.693518,
-0.837805,-1.60775,-1.72044,-0.332448,0.682849,-0.210685,0.239211,
-2.79231,-0.496151,-2.62326,-1.49353,-2.88853,0.72865,-1.25795,
-2.39089,-0.0937239,-1.03114,-1.26089,2.0571,-1.55965,0.668391,
-2.61992,0.0955198,-1.47428,-1.78432,1.959,1.66091,2.48183,
-0.721012,-0.548106,-2.67011,-0.566182,2.68412,0.466237,-0.307482,
0.11388,-0.53306,-1.98431,1.98663,-0.186838,0.21133,-2.12321,
-1.32178,-1.23922,1.54587,-0.0160771,-0.28888,2.03964,1.25459,
0.402468,-1.41614,-1.4414,1.52078,-1.00772,1.32197,2.99893,
0.594327,-1.41531,-0.213161,-0.388684,0.643027,1.33876,1.14273,
-1.19223,0.0520126,-2.1152,0.607017,0.294837,1.82427,1.95503,
-0.920817,-1.25208,0.615286,0.392077,1.24723,0.228021,-0.373104,
0.188812,-0.379842,-0.534876,-0.943569,0.501575,1.24769,-0.855969,
-2.01712,-0.679812,2.30605,-0.444597,-0.843979,-0.779849,1.95963,
-2.66012,0.34379,1.69367,-0.153678,0.259693,0.228174,0.971495,
0.732161,-0.0870761,1.81152,0.439622,0.519612,-1.2698,0.373842,
0.316994,0.320664,-0.688871,1.65688,-2.54644,-0.684754,1.39394,
2.71425,0.225015,2.71103,0.0913048,-1.6451,1.32912,-2.42643,
1.73862,0.303367,0.503676,1.02436,-0.852795,-0.415023,-1.59496,
0.857014,1.54161,-2.60866,-0.80325,0.4906,-1.69007,-1.61366,
-0.440881,-1.80603,-2.48014,1.84729,-1.44786,0.224344,-2.78384,
-2.59096,0.429172,-0.637469,-1.46783,0.469858,1.67153,2.97033,
-0.835808,-0.3483,-1.58715,-1.3908,0.137828,-1.13529,-0.466159,
-2.66029,-0.963777,-1.86869,-0.601133,1.49875,-1.99575,1.39163,
-2.81637,-1.95048,-2.45312,1.25777,-1.78608,-0.7357,-1.74612,
0.645824,-1.6774,0.413605,-1.02852,0.471401,0.313873,-1.59227,
1.4394,-0.375084,-2.83281,0.233761,-2.76136,-0.444167,-1.43319,
-0.744733,0.217294,-0.589216,1.01583,-0.747468,0.232354,-2.26956,
-2.38745,-1.63778,0.832482,0.909651,-0.318263,0.19537,1.21456,
1.63274,0.671065,-2.41979,-0.211877,-2.51582,1.38077,2.34347,
0.709947,0.54574,-0.31941,-1.27113,-0.938437,0.462025,-1.81351,
-0.617721,-0.306935,2.53421,-1.9268,2.02094,0.853865,-2.83335,
2.63217,1.53615,-1.6165,1.23757,-0.22347,0.782362,-1.8094,
1.48799,0.575966,-1.15033,-1.3536,2.30653,-0.606569,-0.349845,
2.71361,1.1659,1.03417,1.86804,1.93076,-1.67863,-1.7327,
0.762684,1.79315,2.77135,-0.185674,-1.80582,1.45134,-0.858326,
0.943696,0.107615,1.51324,-1.94523,0.901765,1.92002,1.67265,
0.602542,-1.38109,0.583969,-1.24972,-0.997666,-0.906799,2.01481,
2.11546,1.39402,-0.821768,-0.488166,1.1989,-0.828563,1.93638,
0.2266,-0.79938,-0.572111,1.81014,1.08395,-1.47262,0.434617,
2.05819,0.736938,1.45747,-1.49864,-2.94095,-1.59049,-1.43083,
0.914559,-0.075846,0.969111,-1.28283,0.499124,-2.06947,-0.673559,
-1.69137,-1.56023,2.94487,0.521711,-2.22609,-1.63455,1.25245,
-0.871744,-1.06876,2.11143,-0.831757,-1.18442,-0.586072,-0.762209,
1.33712,0.852698,1.41418,-1.89986,0.112487,-2.04342,2.42244,
-0.895858,-1.67593,1.41356,2.05207,-0.310162,-1.19013,1.75692,
2.83215,0.936808,-2.64657,-1.02048,1.61716,1.33644,-0.142637,
2.94328,1.84169,1.20601,1.23596,-1.78967,-1.86844,1.04648,
-1.6567,-0.193911,1.11127,-1.54943,-1.03384,0.0453291,2.20386,
0.0930876,-0.478123,-0.491316,0.76897,1.06015,-0.671672,-1.66472,
1.28761,0.941307,2.44284,-0.323091,-0.136814,2.04572,-0.744264,
-0.18676,-0.328885,0.0457675,-1.45659,1.01986,1.05191,-2.14007,
0.367863,2.00432,0.996422,0.856448,-0.262157,-0.260866,-0.388623,
0.00167739,-0.890929,2.48793,1.13877,-0.854978,-1.40888,1.05065,
0.887398,1.98355,0.421131,1.73656,-0.859956,-0.146294,-1.06484,
1.17053,0.916313,0.905535,-1.49688,1.911,-1.3076,0.0415923,
-0.920165,-1.38625,-2.42579,-0.460308,-0.686149,-1.51298,0.939445,
0.172661,-1.6151,-2.47922,0.326834,-1.04369,-1.59042,-1.182,
-2.8555,-1.25184,-1.11432,0.841669,-2.43963,2.02949,2.29331,
1.44022,1.70717,2.2541,-1.92492,0.147561,-1.58211,1.60011,
1.57279,0.399304,0.842894,-0.48326,0.27846,1.88158,-2.49856,
-0.715109,-0.217829,0.395841,-1.21361,-0.693515,0.286066,-2.31283,
0.799395,0.895385,2.61361,-0.466001,-1.86223,-1.08319,-2.77485,
-2.13993,-0.941595,2.25574,-0.226661,0.671603,-1.19548,2.33077,
-0.362991,-0.929085,-1.30823,-0.32963,-2.30423,-1.01039,0.153329,
-0.811518,-1.35027,1.98717,-1.21176,-0.884525,1.25215,2.44904,
-0.280257,-0.55724,2.30411,-0.956207,-1.19614,-2.00477,-0.0633217,
-1.05682,-1.8004,-1.26918,0.723606,1.05707,1.27099,-1.38221,
0.336,-1.17013,2.9273,0.152331,-1.53931,0.971152,1.14875,
-2.17158,-1.77999,-2.02029,0.389535,0.849675,0.788775,1.92993,
0.416183,-1.0543,-1.98911,0.381035,2.4966,-0.310889,3.05002,
1.35862,0.158715,-0.878047,1.38247,-1.54285,-0.838263,-2.25186,
-0.587216,-0.149939,-1.40968,0.711273,-1.66407,-0.170749,2.04572,
-1.80534,-1.3981,-1.92318,-1.1809,-1.01415,-1.37358,-2.14492,
0.965359,-0.138749,0.245863,0.697083,1.03671,-0.0898922,0.726836,
-2.68203,-0.669397,0.221153,0.396238,1.89283,0.0681074,0.652682,
1.42399,0.81243,2.43172,-0.645732,-2.9044,1.39058,-0.899353,
-2.55452,-0.574417,1.24585,-0.159283,2.21268,-0.399466,2.80937,
-0.377166,-0.808652,0.953861,-0.79953,-1.98059,-1.60664,-1.07715,
-0.671462,-1.19158,-2.24366,-1.14693,-2.84356,0.458722,-2.80867,
-2.1987,-0.814898,-0.53406,-1.94297,0.0100107,1.24725,2.26012,
-0.65704,-0.418619,2.50183,1.31858,-0.110603,1.21362,-1.57174,
0.777082,0.166913,0.223599,-0.654496,-0.671374,0.118875,-1.92388,
-1.26954,-1.29504,-1.81463,0.364348,2.27258,-2.09052,-2.93382,
-0.310784,-0.231625,-0.998687,-1.93276,0.162363,-0.423574,0.652013,
-0.857175,-1.02658,-1.67585,1.0982,0.113875,1.59919,0.770856,
2.85323,0.615969,-2.09862,1.87648,0.678677,-0.0500721,-1.96487,
-2.41434,-1.30036,-0.894042,-0.630979,-2.75701,1.12821,2.29845,
0.364593,-0.0944997,-2.39551,1.59082,1.89224,1.15255,0.386604,
2.41183,1.16056,2.10789,-0.871919,-1.36752,-1.03051,-1.8971,
0.595306,0.926651,-0.158386,1.99469,1.32054,0.326413,0.91711,
-1.96678,-0.245449,-1.55082,-0.303174,-0.770235,-0.0784002,2.17743,
0.82358,-0.405311,-2.93064,0.948289,2.53013,0.821374,1.75639,
-2.36763,-1.28986,2.69248,0.542206,-1.16008,-1.75461,0.904815,
2.48188,0.530099,2.35611,0.129148,-2.37323,0.061706,-0.411596,
-0.0702032,0.246678,0.357122,0.708564,-2.28863,-0.555842,0.940729,
-2.37101,-0.411369,0.209138,-0.719543,0.595889,0.542558,-0.63352,
-2.03067,-0.0112655,-2.31956,0.174796,-0.862726,0.33973,1.61762,
-2.11901,-0.135447,-2.07208,-1.43875,0.450768,1.60633,-0.174724,
-2.33975,0.245775,-1.82752,-1.20715,1.06013,-1.50404,-2.15911,
-0.872809,0.00376808,-2.41331,-1.4997,1.70839,-0.746489,0.246954,
1.3067,-0.287781,-0.487552,-1.4241,1.67103,-0.574983,1.21527,
-0.872048,-1.22883,0.909501,-0.367757,0.732763,1.66773,-0.967681,
-0.328552,-0.482226,1.26981,0.374313,-0.183978,-1.53114,1.67837,
-0.182475,-0.40438,1.10416,0.909538,-1.09327,-0.796831,-1.1241,
-0.209032,0.0106863,-2.55868,1.7903,0.00351654,0.6546,-0.175881,
-1.80726,-0.678343,-2.61655,-0.208634,-2.69681,-1.73034,-1.13485,
-2.86295,-0.80685,2.54089,-0.255173,0.606045,-0.724529,-0.352132,
-2.2916,-1.53269,-0.180805,-0.518858,-2.744,-0.0209818,1.84469,
-0.408976,-1.62702,0.302495,-1.23732,1.59317,1.4946,2.19948,
-1.62477,0.21067,-2.90981,-0.327785,-2.10433,2.07388,-0.428934,
-0.754957,-0.699199,-2.60603,-1.7201,-2.13391,0.745501,-2.75801,
2.92012,1.37614,-1.34659,0.426539,2.29639,1.96608,-0.652499,
2.02749,1.23279,-2.51124,-1.18122,-2.21845,-1.48738,-0.0908947,
1.06321,0.940991,2.69848,-1.89935,2.01353,0.926217,-1.38,
-1.50465,-1.6578,2.03373,-1.56165,2.00736,-1.5686,1.19103,
-0.475933,-0.960924,-1.48945,1.37308,-2.14873,-0.501169,1.09415,
0.595342,0.427463,-1.37061,1.04417,1.82286,-1.94546,-0.0158879,
2.3554,1.40684,1.49055,0.771138,-0.344284,-1.3983,1.46368,
0.188203,1.4222,1.22115,1.88249,-0.330039,0.147697,1.19688,
1.40852,0.798103,2.3678,0.252142,1.34225,-0.165682,1.54169,
0.948952,0.0892517,-1.45308,-0.895335,-1.33631,-0.0621911,1.39563,
1.08762,0.794266,-1.81106,-0.427646,0.184751,-1.88742,-1.63652,
-1.20663,-1.83523,1.22917,0.582037,-2.72579,-0.818923,1.66778,
2.88272,0.841666,-2.33239,-0.638944,-2.76057,-2.07091,1.0142,
-0.846609,-0.929567,-2.71437,-0.0603832,-2.26454,-1.36909,3.00388,
1.381,0.751599,-1.54543,1.36477,-0.659936,1.0692,2.24342,
1.90019,-0.0191086,-0.0166036,-1.16103,1.20779,0.982806,2.29211,
0.492867,0.164643,-1.87091,-0.460882,0.115646,-0.66355,0.910635,
2.91992,1.88297,-2.27744,-1.95022,-1.84079,-0.105608,-2.08269,
1.79079,0.533423,-2.35306,1.97107,-1.22422,-1.18634,2.62782,
1.22527,0.396495,2.08304,-0.210457,-0.169406,0.874622,1.94714,
2.36063,1.06127,-2.75788,0.935986,1.72977,-0.0829507,-1.50466,
-0.0477372,0.297501,0.0163289,-0.57824,1.69495,0.933282,0.539177,
2.54851,0.148906,-0.7993,0.99075,0.110501,-0.390942,0.997771,
-2.69259,-1.02263,0.626121,0.82768,0.404146,-0.234335,1.46161,
-2.15104,-1.6514,1.90556,2.0076,0.941641,-0.181191,-2.64386,
-0.199213,-0.860008,-0.205384,-0.214961,-0.0973407,0.986478,0.572316,
1.22813,-0.598758,-2.50471,1.74692,2.33776,-1.15598,2.67424,
2.11846,1.90838,-2.12251,-1.18252,1.08639,-1.65854,-2.903,
-0.0350488,0.517593,0.242663,-0.803808,1.69103,-0.536859,-2.79507,
0.961637,-0.28695,0.662079,-1.82257,2.44505,0.316147,1.68773,
0.671574,0.394174,0.420728,1.07276,1.11844,-0.805089,0.196203,
-0.78542,-1.21645,2.30441,-0.107171,-2.63961,1.01522,0.247433,
-1.38835,-0.199589,2.45437,1.00175,2.45186,-0.961477,0.889436,
1.20749,-0.476213,-2.58017,1.87556,2.83663,1.22437,0.47154,
2.74376,1.87105,1.1384,0.694328,2.0897,0.303833,-1.42543,
1.55122,-0.163341,-0.9445,0.862595,2.19926,-0.871669,-1.56037,
0.977076,1.50279,0.11837,-0.0745562,-1.41379,-1.46396,-0.170337,
2.18162,0.775399,-1.15218,1.46061,-2.60593,0.806989,-0.929514,
0.76912,1.01659,1.62398,-0.73286,0.745911,-0.575355,2.74043,
0.926129,-0.277786,2.68509,-0.348881,2.09781,1.21015,0.810349,
1.17666,1.6364,1.36017,1.81123,-1.50492,-0.24236,-1.48469,
1.16821,0.730242,-0.559427,-1.78601,-0.940889,-0.131717,1.98932,
2.90119,1.70767,-1.08246,-1.17021,-2.75376,-1.13733,-2.456,
1.6539,1.08215,-2.9613,1.84126,2.38687,-0.169928,1.01712,
-0.870221,-1.41174,-1.19006,1.3085,-0.807198,-1.75512,-0.863399,
-2.29469,-0.0958004,-0.277086,1.04145,-0.136953,1.29184,0.394186,
-0.0959039,0.726966,-0.553319,0.59898,-1.04414,-1.33585,0.95017,
0.299316,0.763246,1.45502,-1.35119,-0.352625,0.868913,-1.3385,
2.47584,0.995666,-1.42568,0.390405,0.474738,0.154272,-0.794521,
-2.15331,-1.30795,2.58355,-1.82376,-2.13762,1.79992,-1.49879,
0.780947,-0.0592829,1.4375,-1.87124,-1.05897,-0.134944,-2.53695,
-0.143023,-0.380649,2.23773,0.56285,1.00875,-0.937062,2.91579,
-1.69579,-0.240604,-0.835305,1.43491,1.19982,-0.446565,-0.585042,
2.17502,0.543873,0.550516,-2.0731,1.68101,0.889617,2.28103,
0.109932,0.763598,2.82189,0.110814,-0.516758,1.48255,0.670321,
1.30787,0.536873,1.08873,-1.0716,-0.584565,-1.23874,0.806697,
-2.69982,-1.52976,0.247548,-1.20491,2.38751,-1.30029,0.632994,
-0.811596,-0.304672,1.08873,1.97646,-0.278111,1.60133,-2.03862,
-0.515292,-0.637552,-1.30015,-0.0999525,-1.43809,-1.02528,-0.557908,
-0.467398,-1.32429,-0.756256,-0.243768,-2.92033,-0.569128,1.62121,
2.23902,1.6852,-1.723,0.0295006,1.13212,0.346365,-1.65457,
2.69277,-0.0257432,-0.498028,-1.53052,2.69786,1.23744,2.42421,
0.78434,1.53572,2.64936,-1.73271,-2.27135,1.81077,2.42804,
1.79339,1.38675,1.7253,1.58579,-0.333337,0.997376,-2.90179,
1.60103,-0.27761,1.96472,-1.43149,-1.87229,1.60651,1.51628,
-1.47179,-0.282138,1.00237,0.50149,0.322809,1.8604,-2.79195,
-0.838181,0.127928,-2.61043,-0.462115,-1.62364,0.377662,-2.33906,
1.09888,0.403372,2.56748,0.340505,2.04834,-2.0906,0.543569,
1.28712,0.477391,-0.522062,-0.810871,1.42422,-1.38003,1.53578,
-1.04614,-1.18141,-0.325655,-0.193414,-1.92341,-2.01279,-1.081,
1.01368,1.42606,1.43429,-1.95232,0.0496898,-0.155141,-0.948895,
-2.31685,-1.43216,0.40272,-1.86941,0.372896,0.94644,0.595022,
0.166163,-1.11935,-1.35108,0.346856,2.54775,0.0405335,-1.67914,
0.48988,0.81659,-1.07007,-0.734381,0.653498,1.75034,-1.68061,
2.5214,0.616873,0.412778,-0.806772,0.92384,0.593224,1.25487,
0.032135,1.14096,1.23786,-1.35598,1.54741,-1.55542,-2.95231,
0.881201,0.648076,-0.117787,-0.673795,0.830477,-0.854498,0.692442,
-0.915014,-0.325458,0.70478,1.4692,1.21163,-0.683131,-1.9186,
1.63864,1.50419,-1.82863,1.31429,2.82116,-1.66661,-1.52177,
0.0310506,-1.18345,0.885919,0.205591,0.621172,1.13209,2.93559,
0.903559,0.743878,2.70291,-1.47784,0.344754,-1.61404,1.25839,
0.550289,-0.242227,-0.708743,-0.551592,0.819198,-0.0456011,2.31177,
-1.554,-1.86603,2.50725,0.166064,-1.84242,1.2524,2.03773,
-1.93738,-1.24444,-2.1728,-0.859781,-2.74434,1.43637,2.45958,
0.549773,-1.78413,0.569235,-1.75687,-1.44934,1.46721,1.56029,
-1.27803,-0.773875,0.55571,-1.67384,1.39305,-0.745706,0.315797,
-1.81458,-0.723681,2.50632,0.329174,0.121387,-1.72043,0.620808,
0.310228,-0.997092,2.60966,-0.633511,-0.653286,1.09302,-0.310382,
-1.49338,-1.10085,-1.17142,1.44526,-2.50699,0.744573,-2.50407,
-2.8262,-1.23696,-2.68647,0.971569,-1.23434,0.828531,1.59222,
-0.205529,-0.790834,2.58058,1.02314,-1.04244,1.02547,-1.34816,
-0.599555,0.0842578,1.33693,-1.55059,-1.63695,0.234762,-0.0175302,
0.540567,0.510938,-1.87947,-0.67005,2.74209,-0.960797,0.0146184,
1.83014,0.481015,-0.383505,0.0942024,-1.09426,-1.49593,2.2333,
0.432715,1.67303,-1.73623,1.23014,1.39374,-1.50466,-2.01963,
-0.196577,0.758269,-2.08726,-0.000501735,0.750057,-1.55595,-0.28666,
1.01141,0.334095,0.0321433,0.698038,0.22003,-1.12121,2.61076,
0.481305,-0.451416,1.95895,0.703752,2.17992,0.926567,1.2371,
1.80904,1.66086,-2.22415,-1.42597,0.209032,-0.988589,-2.14991,
2.06928,0.489694,-2.33773,-1.96912,1.23993,0.803465,-3.04733,
2.27892,1.37371,-1.84286,0.746951,-0.945903,0.60514,-0.373833,
-2.1159,-1.38341,1.75932,-1.57654,-2.78595,1.78572,0.474172,
2.45157,1.78334,1.96671,1.89529,-1.26214,1.92586,-0.505383,
0.74352,0.247967,1.99226,-0.475708,-0.988668,-1.50005,2.80705,
0.218753,0.083377,-0.912436,-0.366931,0.867227,0.808137,0.589869,
0.0600701,-0.398458,0.671636,-0.0744336,1.40417,-0.965757,-0.755303,
1.30954,0.885841,-1.69827,1.85851,2.14606,0.360624,0.923124,
-0.851015,-1.71251,0.929198,-1.43231,2.43032,-2.01839,2.71494,
2.53197,0.453147,-0.452268,-0.97444,0.880749,1.841,-1.59628,
-2.3483,0.0807478,1.1115,1.08587,1.95455,-1.96393,2.94661e-05,
1.53283,1.89553,0.258097,0.270506,-0.574853,-1.30016,-0.659321,
2.53598,0.467259,0.543046,-1.04274,2.77825,-0.232429,-1.26306,
2.49296,1.61869,1.65681,-0.132891,-2.39923,-1.63146,-3.05359,
0.594701,-0.781024,-0.359423,-0.328093,-1.48244,0.0760103,0.503003,
1.6802,0.95015,-1.67964,-0.196099,-0.162956,-2.02417,0.19173,
1.26195,0.555154,-0.873042,1.33487,-0.329829,0.439803,-2.65835,
-2.25395,-0.335166,-2.61372,-1.04394,-1.34629,-1.67014,-1.47841,
-2.89104,0.0308271,-1.8363,-0.282436,-1.08395,-1.76445,1.12593,
-2.4553,-1.25582,1.09235,0.640729,-2.48081,-1.31458,2.03892,
1.29736,-0.644521,1.47072,-1.87588,2.2213,0.376817,-1.98563,
-2.53296,-2.01237,-1.56345,-0.934979,-1.80201,-1.84297,2.76392,
0.214758,-1.15434,2.02128,-0.0127426,1.88313,-0.508712,-2.96378,
-2.48416,-0.696344,-2.16059,-1.10465,0.0139075,1.44055,-0.503906,
-0.374455,-0.152816,-1.14323,1.60404,-1.50195,-0.79359,-2.12438,
0.759263,-0.165108,-0.51086,1.9897,1.73222,1.7119,-0.952777,
-1.98735,-0.293768,-1.99924,-0.0760209,2.30159,1.21088,2.6739,
-1.9028,-1.46364,1.14911,-0.826912,0.817914,1.40928,0.0814143,
-0.640301,-1.8752,2.53961,0.451447,2.64901,1.53652,1.56866e-06,
2.22053,1.73029,2.47007,-0.398713,2.04567,-0.513593,1.28314,
0.361221,-0.162921,-0.105273,0.0074992,1.27437,0.689173,2.75837,
-2.41531,-1.04307,1.32073,-0.36487,1.67268,-1.71623,-3.0476,
0.574468,0.126284,-2.12324,0.835803,-0.359272,-1.09309,-1.68246,
1.81447,0.6729,1.96455,0.632179,2.48551,1.13898,2.07201,
2.88064,0.0764125,1.0705,1.21757,-2.56906,1.94683,-0.48772,
2.77967,0.113655,1.61584,-0.0880129,-2.8733,1.28212,2.2359,
1.75556,0.183293,-1.36311,1.22754,-2.0912,-1.35145,-1.06456,
-2.27364,-0.905193,2.82811,0.160045,0.10347,-1.35495,2.42245,
1.11711,1.02844,0.516106,1.50393,0.31979,-1.99127,3.0014,
2.68471,0.748961,-1.0817,1.40052,0.363958,-1.4047,0.946922,
-1.76585,-0.788229,-1.16607,-0.923023,0.969466,1.31176,-1.74322,
2.29691,1.41449,-1.98641,1.57078,-0.352153,-0.942041,-2.06864,
-1.41206,-0.801329,0.218848,-0.775066,0.588347,-1.24446,0.152207,
-1.77493,-1.45427,2.35931,1.29953,0.204559,0.982961,0.316837,
-0.774913,-1.39661,1.65946,1.0829,2.29416,-1.91269,0.689349,
-2.70677,0.503894,0.626542,1.22191,-2.54105,-0.844808,-2.57489,
0.816109,-1.06751,-2.16112,1.09444,1.29514,-1.73762,-2.47442,
-2.25778,0.522524,-2.77104,-0.367424,-2.4745,-0.710802,2.04609,
-2.39014,-1.48777,-1.4694,-1.05628,1.28223,-1.23984,-2.4962,
-0.150257,-0.733286,-0.591494,-1.62206,2.85944,0.00209873,-1.02023,
1.1894,0.180091,1.59561,0.00274464,1.99852,0.667953,-1.79966,
-1.73603,-1.56908,-0.906278,-0.790206,0.189136,1.18844,-2.48149,
-0.0440766,-1.07334,0.954312,-1.61316,0.00712654,1.34742,-2.64711,
-0.36478,-0.825016,-1.54416,-1.12813,-1.4905,-1.36536,-0.490788,
2.01179,1.93748,-0.948299,0.659161,-2.1051,-1.87692,0.801029,
0.531414,1.48974,1.52294,0.31824,-2.568,-0.211289,-1.5665,
-1.70179,-0.34268,-2.48821,-1.84169,-2.72824,2.03777,-0.68169,
1.31844,0.789679,0.122083,-0.54421,1.03975,-1.98016,2.75167,
-1.14905,-1.24121,0.954548,-1.78336,0.129443,0.160679,1.2516,
1.59195,1.26702,0.211513,0.0876054,0.233146,0.924347,0.156766,
0.25706,0.268473,-2.94199,-0.36629,0.397411,-1.1147,1.0162,
-0.710254,-1.78912,2.07195,1.36294,1.91539,0.176958,-0.878917,
-2.45368,-1.36565,2.78713,0.60415,-1.62567,-1.05364,0.621865,
2.7364,1.52827,0.599945,2.07564,-1.59066,-1.52913,2.97254,
0.66631,0.901699,-0.215922,-1.84767,-1.6058,0.0687155,1.54094,
-2.51602,-0.974695,-1.57665,-1.69127,-2.77262,-1.01686,-0.438705,
-2.09793,-0.840059,-0.855808,1.0773,-2.29899,-1.49752,2.46798,
-1.25925,-0.829887,0.365665,0.544172,2.00374,-0.953212,-3.00695,
-1.4359,0.0246042,2.88127,-1.64433,-2.46672,-1.16976,0.755957,
-0.866203,-1.32403,0.593409,1.31482,-2.65092,0.603854,1.54509,
-1.4153,-1.26208,-0.265435,-0.240604,-1.49842,1.16026,-1.16489,
0.571683,0.833134,1.5407,0.761073,-0.623222,-1.73841,-1.36227,
-1.72465,-1.4274,2.20688,1.47858,-2.58259,1.34181,-2.11437,
-0.098623,-1.27633,-2.33582,0.626788,2.37173,0.571352,-0.723562,
1.41323,1.10094,0.618738,0.174066,2.89822,0.138193,-1.18763,
0.482512,0.730044,2.55789,0.450022,-1.01235,-0.30426,2.1175,
2.26618,0.794845,-0.0966216,-1.93433,-2.40716,-0.52569,-0.915617,
0.396654,1.327,0.190079,-0.786772,2.14404,-1.71919,0.336091,
1.2374,1.28613,2.24224,-1.49117,2.91994,-1.64748,2.95259,
0.740665,1.9613,1.76447,1.06788,-2.40066,-0.423013,-0.906902,
2.84021,1.57404,1.46892,-0.962642,2.0887,0.376983,1.54044,
-1.64866,-1.88199,-1.15404,-0.698191,2.55707,0.897789,-1.34992,
-0.184964,0.23213,-1.02896,0.39113,1.7749,-0.0337276,1.68048,
2.04927,1.28028,1.13176,-0.0369766,0.210716,-1.91914,-1.62242,
-1.81466,-0.499441,-0.98727,0.277375,-2.39464,-0.509834,-1.86413,
1.18105,0.11734,1.68653,-1.01747,-2.30531,0.184572,-0.402928,
2.88068,1.51076,-1.44716,1.51719,2.45139,1.83285,-0.185952,
-0.629867,0.0855672,0.7482,-0.776204,2.0305,2.06259,-2.31591,
0.442871,0.421136,1.85118,-0.38779,2.05168,-0.831784,2.37617,
0.67011,-0.421235,0.953304,-1.84913,-2.20044,-0.244177,0.959515,
0.608095,1.78473,-0.86511,1.77094,2.31431,0.423671,2.43878,
0.775619,0.958249,-1.18863,-0.11567,-0.275773,1.28443,0.259689,
1.42882,-0.0270027,0.278865,0.796896,1.23089,-0.673912,-1.80238,
-2.10636,0.392798,-0.102277,1.52339,-2.29359,-0.73809,2.26913,
-0.346349,-0.48361,-0.301788,1.66194,-2.38722,-1.19565,3.05192,
2.19138,0.133811,-0.464284,-0.516103,1.8985,-0.648806,1.29449,
0.0373257,-0.187652,2.50286,-0.755737,0.715112,-0.71502,-1.50337,
-0.272733,-0.753113,2.70725,0.552437,1.79794,-0.648487,2.75681,
-1.84523,-1.78492,1.71425,0.751973,-2.73607,-0.310062,0.655841,
0.770178,0.0803211,-2.36206,-0.780735,0.369936,-1.27051,2.60906,
0.347273,1.47371,1.55843,1.83081,0.019431,0.628941,0.734638,
0.964929,1.29699,-1.86283,2.06974,-0.729374,-1.99913,1.70734,
-0.280584,-0.148125,1.07066,2.03307,-1.30332,0.403926,0.227875,
0.67252,0.312094,-0.467327,0.62653,0.792492,-1.84753,1.2536,
0.770784,0.692578,-2.91873,1.36004,0.103377,-0.269394,-2.67243,
1.18615,1.87063,1.14844,0.313753,1.88703,1.87848,-2.35009,
-0.491563,-1.48137,-0.884337,0.981043,2.22822,1.21909,-1.46338,
2.6952,0.207353,0.646723,-1.55963,-1.98039,-1.63383,0.654706,
0.462314,1.74414,-0.168624,0.125329,-0.817898,-1.43303,-1.34742,
-0.281633,-1.06249,-0.242046,-0.749691,2.4996,-0.216074,-2.89848,
1.31006,0.930223,-0.737989,1.65753,1.50291,-0.500823,0.0881076,
0.00480982,0.606942,1.45441,1.03423,-0.380472,0.820099,0.303066,
1.80663,0.994843,2.47451,-0.500294,1.41968,-1.32473,-2.9909,
-1.0976,-0.476244,-2.3541,1.39057,1.71441,-0.770001,-3.04846,
1.24432,0.459312,-1.75733,-0.0108537,-0.849218,-0.549758,-2.10374,
0.663669,1.21754,0.594692,-1.93579,1.82957,-1.52971,-0.595207,
-0.0986536,0.349931,-0.793164,-0.298507,1.17535,-1.05827,-0.0326327,
1.50926,1.35443,-0.453146,1.26253,-2.66356,-0.841181,-0.968306,
0.0654091,1.19034,-2.32052,1.59351,-0.619506,0.0191415,-1.69494,
-0.583664,-1.63525,-1.53635,2.00293,1.58456,1.90182,-2.51629,
-2.40534,-0.704792,1.70337,0.725561,-0.447095,1.35484,-2.73582,
-2.57879,-1.38713,1.62705,0.715018,-2.58683,-1.12048,-0.803442,
-0.368221,-1.06443,-1.12259,-0.417965,-1.5322,1.55425,0.569968,
-0.723004,-1.68379,2.1109,1.5886,0.917312,-0.73835,-2.65682,
-0.828961,0.0662349,-0.873348,1.62944,-2.65289,-0.647585,2.61907,
-0.58323,-1.37614,-0.545007,0.886441,2.48484,-0.96525,2.51111,
-2.11656,-0.300089,-1.87922,1.34234,-0.817091,-0.699189,1.01235,
1.21011,0.523396,-0.364015,-1.48629,2.40005,1.34203,-2.26687,
-2.55369,1.01222,-2.94674,-0.859338,-1.48492,-0.991676,0.328017,
-2.70045,-1.3327,0.716713,1.10053,1.70366,0.759397,-2.61584,
-2.32898,-0.237141,1.51573,1.55428,-0.601062,1.84116,-2.58984,
1.95415,1.29776,1.63522,-0.605678,1.7187,1.17535,0.477896,
0.712987,-0.149425,-0.157727,1.72862,-2.13162,0.0626943,0.406256,
-2.77801,0.360291,-0.867705,-1.1935,0.153979,1.08016,0.0461177,
-1.17996,-1.49547,2.54071,0.828325,2.47224,-0.290624,0.497351,
-2.64809,-0.94804,-2.72706,-1.8376,1.11022,0.243827,0.980762,
-1.54676,-1.67073,1.59599,-1.62324,-1.07822,-0.4402,-0.858117,
-2.62881,0.388823,-0.243578,-2.08239,2.59769,1.39213,1.72673,
-0.46939,-1.49819,0.184603,-0.646252,2.80847,-0.600612,-2.0635,
0.914692,1.36517,-2.37918,1.376,2.21628,-0.626792,2.85515,
0.322682,1.44161,0.47235,1.70339,2.66647,-0.118259,2.67977,
1.84909,1.40139,2.56169,-0.898632,-1.32933,-1.68961,1.51979,
-0.58951,-1.08005,-2.24769,-0.457871,-0.858958,0.607648,0.0414235,
-1.29198,-0.538636,0.742851,0.426568,1.36016,0.986369,0.825142,
0.771905,0.115992,-0.379666,0.307321,1.98338,1.96681,-1.34024,
-1.62547,0.0647629,0.909967,-0.289114,-0.130088,-0.744609,1.03467,
0.63792,2.05957,-1.24988,1.61374,-1.06726,-1.81221,-1.73699,
0.996901,0.437078,0.919487,0.0629074,2.80403,0.382738,-2.26991,
2.74406,0.895308,-2.8015,1.02804,1.00991,-1.34815,-2.12409,
0.080265,-0.468454,-2.6127,-0.23915,1.4247,-0.192071,-1.76968,
1.16105,-0.332012,0.669466,0.2504,-1.08532,-0.0788912,-0.816363,
0.897302,1.31512,-0.508526,-0.666653,0.798719,0.454256,1.98499,
-2.77478,-1.82142,1.16182,0.112753,-2.91435,-1.28469,-1.61658,
-1.42458,-0.968042,-0.276316,1.76967,-1.41969,-0.267045,-1.78056,
0.0481476,0.155782,2.03521,-1.28641,0.622329,-1.49211,0.700491,
0.228724,-0.0974693,-0.42595,-1.51414,1.25576,0.395846,1.40552,
-1.96102,-0.730145,-0.378834,1.71843,-2.81732,1.11071,0.58033,
2.73421,0.539033,-0.441477,1.18695,-1.75586,-0.655782,1.61647,
2.78433,0.0194243,-1.2003,0.0511344,1.0003,-1.45316,2.57959,
1.13956,0.189202,0.751168,-0.197371,-2.44244,-0.142176,2.35229,
-2.76389,-0.126406,-0.799008,0.703659,-1.659,-1.41869,1.84955,
1.02217,1.97997,1.5717,1.49031,-1.86443,-1.60198,2.43554,
0.571921,1.18899,0.199883,-1.01512,0.510974,0.830149,0.230509,
-1.68653,-1.09083,0.178343,-2.00635,-2.49958,0.951663,-1.479,
-0.170283,0.290678,2.61784,0.190646,0.204324,-0.899787,0.812023,
2.74852,0.453809,-1.31276,0.216234,-0.507327,2.08627,1.32991,
-0.98537,-1.27667,-0.784776,-0.420754,-2.07309,-1.3445,2.92904,
-2.7232,-1.78934,-1.02558,0.149482,-0.668421,0.239263,-2.86038,
0.0152118,-0.887685,-0.421955,-0.542867,-2.8361,1.29396,1.74582,
2.26366,-0.101558,-2.71212,1.88962,1.38089,-0.770614,2.08592,
2.36161,0.674866,-0.77267,1.26196,1.33874,1.95652,0.881785,
1.80259,0.33015,-1.64015,-0.782768,-1.15301,-0.766309,-2.42625,
2.6464,1.32516,-0.654499,0.561331,2.23047,1.81154,1.70608,
1.40954,0.452404,1.15778,-1.38363,-1.97174,-0.133223,0.0628631,
0.721236,-0.5548,-1.54218,2.00793,0.816122,0.591767,2.46,
-0.0302851,0.929,1.18621,-0.212072,1.51894,1.17413,-2.08074,
1.84438,0.126136,-1.75131,-0.770217,0.937843,2.08309,2.66072,
0.348583,-0.0477983,1.03323,-1.32608,-2.11235,-1.0317,-0.307302,
-1.87703,-0.782379,1.59838,-1.41713,-1.92527,-0.0837244,-1.55164,
2.93801,0.710222,1.19671,0.904097,-0.0495188,-0.0619906,1.94496,
-1.12441,-1.21857,1.51706,-1.76436,-1.06602,1.06487,0.827296,
2.90465,1.27052,-1.80359,0.919876,1.48825,0.128038,-0.970034,
-2.54854,-1.5245,1.09371,-1.40913,-2.65055,1.06284,-0.787592,
-1.13677,-1.66613,1.40406,1.65495,0.242497,1.21641,1.90935,
-0.396934,0.064052,-0.0594435,0.528674,2.3288,-0.934446,-1.45249,
-0.322215,-1.00604,1.98217,-0.872045,2.62122,0.794457,2.25302,
0.549684,-1.42356,-1.25801,1.74648,-2.76594,1.69409,2.59691,
-0.682353,-1.44611,1.57879,-1.82136,1.63502,1.96036,0.330545,
0.269311,-1.81657,0.957098,0.0926386,1.23046,-0.5483,2.99959,
0.822991,1.49157,-2.66543,0.691305,-0.477437,1.07639,-2.1062,
-2.42026,-1.97645,-1.76825,-1.70909,0.334611,-0.569374,-1.88083,
-1.99164,-0.783972,2.20237,-0.263424,-1.07633,-1.05747,0.46885,
-0.144617,0.618028,-2.26109,0.798387,0.9424,0.935098,1.78681,
-1.46377,0.13717,-2.81175,-1.8029,2.91299,-1.66762,2.39273,
-0.186122,-0.930209,-1.67081,1.13137,1.0316,-0.504907,0.736425,
-2.39761,-0.350422,-1.71608,0.711825,-0.00116916,0.0135728,2.06802,
-2.71672,-0.0660548,1.2992,0.219007,1.38002,-0.780763,-2.84249,
-0.0272332,-1.57613,2.23197,0.120929,0.702859,-1.57736,-2.9925,
1.93867,1.82708,0.275264,0.998002,0.341522,-1.83413,0.658257,
0.914469,1.17054,0.246001,1.37426,-2.50649,-2.00688,-2.49221,
1.81439,0.347898,1.94889,1.14203,-0.329549,1.90426,-0.626075,
-1.02191,0.180447,-0.106132,0.220342,-0.430053,-0.854652,-0.574931,
-1.16456,-1.80872,-1.77687,1.69025,1.6959,0.985894,-1.95164,
0.578298,-1.57894,-0.321688,-0.393643,1.20052,-0.695301,-2.12361,
-2.39559,-0.482714,-0.22046,0.762347,-0.868928,1.13301,-1.28641,
-0.40386,-1.67375,-1.89651,1.81092,-1.8297,1.74979,0.827683,
-2.15239,-1.13396,1.23551,0.291973,-0.935045,0.231289,1.11411,
0.896413,0.925899,-1.25625,0.153807,-1.38495,-1.23952,2.18632,
1.4071,0.491375,-2.79598,0.0335165,0.667255,1.86417,2.15381,
2.65937,-0.0489335,0.672791,-0.823997,-0.268746,0.524396,2.66283,
0.890141,1.28926,-1.21063,1.08773,-1.17078,-2.09228,0.36039,
0.411217,1.51927,0.943929,0.505479,2.46312,1.2197,-0.724871,
2.35494,1.24764,0.234599,-1.46124,-2.51192,1.49749,2.13356,
2.42774,1.43589,1.85607,-0.15891,-2.5786,1.93558,2.25195,
-0.105233,0.674337,-0.829559,-0.422661,-1.2603,0.745292,2.40147,
1.94032,1.87909,2.89596,-0.812605,1.1988,1.74487,-1.52702,
1.85839,1.19716,2.83691,0.717113,0.723305,-0.926176,1.29643,
-1.49276,-0.484566,-0.82498,-0.698038,0.924946,-1.67487,-0.869073,
-2.30751,0.411716,0.323031,-0.21297,0.481241,0.894051,2.07784,
-2.86849,-1.71234,1.87836,1.65027,1.56066,1.00613,2.45502,
1.16415,0.940154,-2.8091,1.33517,2.58556,0.322876,0.0888022,
2.48419,1.84759,1.14282,0.784358,0.649823,1.94662,1.11271,
2.21759,1.56938,-1.47932,1.4006,-1.27446,0.757299,2.70539,
1.48061,1.67735,2.65807,0.304355,1.87331,0.733718,2.43697,
2.50691,1.61584,2.65727,-0.509715,-2.93018,-1.28952,-2.23939,
0.907174,0.80864,1.18798,1.35035,0.107872,0.0159687,-1.14068,
1.92692,0.688279,0.481907,0.588276,2.12302,0.855285,-0.537987,
1.04283,-0.161011,-1.16966,-0.393262,-0.823785,0.383739,1.26919,
1.83824,0.751259,2.25518,1.53026,-0.22871,-2.06094,1.97709,
1.45296,0.908433,0.121916,-0.383813,0.350889,-1.16123,-0.779611,
-1.18988,-1.44604,-2.6748,1.7423,2.84274,-0.591533,-0.626122,
0.757553,-0.205202,1.29339,0.46506,0.0207425,1.39131,-2.32782,
2.86555,0.970704,2.40535,0.113314,-2.69369,-1.73931,0.811488,
0.895382,-0.418701,-0.642729,0.665351,-0.314786,0.678642,-0.585204,
1.408,-0.380604,0.533179,-0.301545,-1.4976,1.44513,0.0149004,
0.388424,-0.477376,-0.0714142,-0.811553,-1.48989,0.0786935,2.18869,
1.21928,1.61835,-1.08194,-0.672582,-1.23307,-0.458634,0.910608,
0.209059,0.996423,-1.02638,0.755702,1.93426,-1.16687,0.960075,
0.933189,0.329006,-2.61825,-0.0405298,-0.996748,-1.20284,-1.45696,
2.1322,1.17831,-0.280203,1.51543,0.2484,0.12715,0.678043,
2.44585,0.557285,1.41776,1.38219,-1.35899,-1.15502,-1.3887,
2.11572,1.45156,-0.0961195,0.905421,-0.722343,-1.99643,-1.90955,
1.64381,1.03763,-1.61982,-0.0223688,-2.27598,0.894195,0.996373,
-0.301748,-0.692105,-1.2529,1.77872,2.75499,1.1199,-3.01621,
1.29807,1.34743,-2.49186,-0.929419,-1.54295,-1.59364,-0.835086,
0.310989,-1.65712,-0.712873,-0.123547,-1.0654,-1.0071,-2.49436,
-0.171011,0.711669,2.14409,-1.6185,-1.2003,-0.398525,-2.05103,
0.345724,1.24563,2.103,-1.55982,-1.8201,-1.1574,0.57009,
-2.73013,-1.51557,0.487444,0.919378,1.87244,-0.51538,-0.13576,
-0.0518803,-0.126311,0.744618,1.07108,1.53977,-0.895508,0.324837,
-1.69288,-1.1564,0.282215,0.66585,-2.89006,2.02367,1.43297,
0.504617,-1.63011,0.124421,-1.49405,2.78715,-0.513865,1.82245,
2.96008,-0.145341,2.17724,0.876393,-0.908305,2.07729,-0.137633,
1.29887,0.491637,0.86824,-1.64074,-0.637775,-0.0461064,0.497977,
-1.09908,-0.845552,-0.505745,0.679647,-1.31957,-1.18047,-0.502305,
0.519387,0.309304,0.489842,1.1591,-0.630411,-1.53697,0.711741,
-0.519459,0.0921607,-2.83057,-0.585662,2.24372,1.59104,-0.559138,
0.263119,-0.60789,1.37526,0.032582,1.82583,-1.515,-0.517394,
0.426525,1.19009,0.917255,-0.512224,2.02882,0.949222,0.101493,
1.00675,1.74577,-1.27234,-1.08357,0.465945,-0.418828,0.758511,
2.88654,1.03504,0.588186,1.06182,0.702142,0.794588,-1.46547,
0.807921,0.186972,1.56984,0.954868,1.21155,-0.681485,0.0774073,
1.86783,1.23865,-1.29944,1.05013,-0.412842,1.61711,-0.837063,
2.21994,0.298458,2.46679,-1.50335,2.17797,-1.28465,1.8508,
-0.102439,-0.527656,-1.94758,-0.857213,2.37593,-1.20559,1.74493,
0.907157,0.893909,-2.87397,1.48497,1.04659,1.78212,2.23702,
-1.79273,-1.45628,1.18374,-0.242308,-0.784095,-0.374274,0.735115,
1.08163,1.04148,0.300547,-1.14479,1.99502,0.871853,-1.11394,
2.92155,1.85898,-0.430077,1.81338,2.57675,-2.06001,-1.29403,
-2.54652,-0.623417,-2.06713,-0.00555269,-2.68512,-0.144628,-0.479605,
0.399352,-1.81403,0.417025,-0.434219,-0.739722,-1.0101,2.42293,
-2.84886,1.86397,-1.75457,-1.16974,-2.14392,-1.42901,-2.00769,
2.04595,0.368298,0.487909,-1.67766,1.15516,-0.718244,-0.981377,
0.738501,1.50712,2.83063,-0.375486,-1.71266,1.83787,-2.88887,
-2.23571,-1.87055,-1.82475,1.24905,2.20893,0.485851,1.22165,
-2.43686,1.43779,-2.42993,-2.01596,-0.413369,1.27239,2.9607,
-2.8637,-1.59571,0.771383,-0.712428,1.7239,2.07599,-2.83301,
1.03127,-0.647925,2.11366,-1.47606,0.86205,-1.99037,-1.12248,
-1.37214,-1.02862,2.67029,-0.0440165,-1.97649,-1.32201,2.12045,
0.876196,1.05171,2.18012,-0.962758,-2.47576,1.63295,0.162315,
-0.59724,-0.21951,1.42966,-0.472395,2.21148,1.82107,-1.60913,
-1.79297,-1.03251,-1.72565,0.879072,2.08653,-0.485933,0.453336,
-0.319424,-1.23007,0.325033,0.263455,-0.60177,-1.91975,-2.15686,
-2.6507,-1.3023,1.87916,0.69138,-0.759899,1.52721,-1.55551,
-2.92051,0.280212,0.0372004,2.00637,-0.736118,-0.183472,0.310445,
0.079572,-0.976825,0.859652,1.39029,-0.133735,-0.485382,-2.61067,
1.43348,2.0504,-0.0263486,1.30106,0.270619,1.28862,-0.272616,
1.84078,0.310403,2.78143,-1.00487,-2.8123,-0.144754,-0.121353,
1.60468,-0.254855,-2.27235,0.8808,2.83343,0.159254,-0.973398,
0.672931,0.713193,-2.8848,0.486838,0.1506,-2.01594,0.319261,
-0.235615,0.347265,-1.90577,1.25857,-0.404183,-1.53658,0.76119,
0.415543,-0.359861,0.520929,0.690977,0.58483,0.400854,-1.63599,
2.6635,0.71427,-0.721529,-1.93617,2.07788,0.878026,2.76157,
-2.29249,-1.78713,-1.71289,-0.0799544,0.368377,1.26231,1.18794,
-0.461166,-0.973135,1.3009,-1.27043,-0.542817,1.50515,-0.574875,
-2.85662,-0.642762,-2.06441,0.870766,-1.66782,-0.739666,-1.48047,
-2.51123,-1.41088,-0.352419,-1.8963,-0.986236,-0.570966,0.0758086,
-2.19042,-1.40618,-2.07697,0.0284594,0.565362,-1.0423,-1.24093,
-0.976387,-0.730233,-0.529337,-1.36609,-0.60209,2.00479,-0.626656,
-0.424426,-0.0417434,-0.667227,-0.607789,0.680946,0.669367,0.892412,
2.87107,0.403563,2.92443,-0.878454,2.53925,-0.278097,-1.04265,
1.03292,-0.37099,-1.21508,1.80661,1.16457,-0.95951,-1.30853,
-1.9995,-1.47241,0.112816,-1.86286,-1.00903,-0.559034,0.989136,
2.86481,0.820761,-0.690006,-1.60387,1.83811,0.603079,0.357956,
-2.05022,-0.647322,2.92031,0.891511,2.7745,-0.78415,2.78235,
-1.74079,-0.972767,-2.13469,1.55344,-2.57719,-0.996297,-0.911913,
0.680664,-1.18922,1.0147,-1.54283,0.298094,1.97354,-2.32441,
0.892132,1.12856,-2.55998,1.13486,-0.492919,-1.24653,0.509551,
-1.00827,-1.68714,-0.963487,-1.4002,2.33358,1.51874,2.02563,
-2.64745,-0.337732,-2.76715,-0.92174,-1.82429,-0.951639,1.5789,
-0.872507,0.13401,-2.16242,-0.342649,-1.35426,-0.626611,-0.497041,
1.62589,0.546978,-0.341162,1.2567,0.157525,-0.522395,-1.22067,
-1.48376,-1.3404,2.89751,1.54376,1.96095,-0.702157,-1.53663,
0.505412,1.31491,-2.56881,-0.923296,-0.00386672,1.278,0.198508,
-0.843584,-0.479712,0.0260658,0.993033,2.17831,-1.00107,-1.95822,
-1.32967,-1.80301,1.13499,1.42265,0.620772,-1.8198,-1.14654,
-0.300306,0.118482,0.483627,0.433556,0.993324,-0.520256,0.703384,
0.700068,0.30717,-0.018078,1.4266,-2.40661,1.7899,-2.82221,
2.34666,0.570139,2.66627,-1.85001,-0.719962,-0.684081,0.155661,
-2.50858,-1.45734,-0.759058,-1.79293,-1.05053,0.982943,-1.00212,
-2.8808,-1.49297,-1.33302,-1.48616,0.582099,0.0872259,2.1426,
1.41526,0.793149,-2.36833,-1.63202,0.73266,-0.981859,2.86758,
-1.59005,-1.64523,-1.53936,0.648089,-1.62944,1.61612,-0.137031,
2.48944,1.85261,0.745716,2.01273,-0.94767,-1.986,-0.263841,
0.172139,0.817116,1.89994,0.725444,2.11342,-0.465526,-1.96061,
0.380102,-0.106621,-0.765169,-0.580433,2.61945,0.453069,1.22134,
-1.41033,-0.439701,-2.55419,-0.0114177,-0.616202,2.03256,0.890218,
-0.117565,1.03552,-0.7477,0.794211,2.50355,1.97924,-0.17069,
-0.0620638,0.139419,1.6912,-1.27573,0.860672,-0.0128858,2.24697,
0.726043,-1.16553,1.08462,-1.90556,0.710875,1.60465,0.339247,
0.0188909,1.3043,0.560311,-1.30407,-1.84151,0.84215,-0.768867,
2.22175,0.337111,-2.03532,1.61188,0.355093,-0.275712,-0.756593,
-2.55541,0.509966,1.98808,0.590973,1.87367,-0.775894,0.480109,
-1.88531,-1.37954,-0.595791,1.50325,2.60092,0.284117,0.995052,
-0.853906,-0.498549,-1.45741,0.213159,-0.67244,-0.987455,-1.17305,
0.673078,1.51377,-0.862809,-0.310398,1.20316,0.769937,2.46338,
-2.76709,-0.401913,1.18255,-0.0792397,-0.961166,0.856977,-1.36268,
0.0058051,1.33792,2.02846,-0.843903,2.74382,0.722006,2.54821,
-1.88424,-1.05401,-2.02089,0.107516,2.58494,-0.491873,2.9672,
-2.01355,-0.791332,1.43896,-1.87953,1.34894,1.70165,-1.2625,
0.0360612,-0.364115,-0.71634,-0.991977,1.31401,-1.29006,-0.601752,
-0.5037,-1.61995,1.40797,-0.437165,2.09193,-1.54247,-2.13435,
-2.00544,0.277729,-0.317086,1.12626,0.14313,0.183782,2.34692,
-0.590483,-0.0351122,2.62262,-0.501053,0.223029,1.80457,-2.03896,
1.15423,1.4996,2.20135,-1.68111,-1.42059,0.0860094,3.04488,
-2.5326,-0.993551,-0.52784,-1.00076,-2.57079,0.232716,0.698565,
0.556927,-0.202925,-2.89458,2.01948,-2.05619,-0.785886,1.26714,
0.0722721,0.383342,2.49855,-0.433566,1.95611,-0.321099,-2.10435,
2.26192,1.38299,0.52956,0.238508,0.511149,-1.20515,1.35062,
-0.540214,-1.05061,1.23156,0.167009,0.211688,1.26257,1.2319,
2.29575,1.11182,1.8728,-2.01343,-2.71085,-1.07784,-1.35341,
-1.96201,-1.81562,1.90214,0.449765,-0.509772,-0.936978,0.174674,
1.12487,1.21968,-0.142353,-1.06005,-1.15872,0.287033,-1.88184,
-1.23173,-0.181348,-0.657098,0.97744,0.876959,0.79985,-2.60064,
-0.683701,-1.19221,0.138083,0.731797,-1.77292,1.07277,-2.18695,
-1.42058,-1.49436,1.31139,0.746701,0.0336665,2.03459,1.59094,
-0.204686,-0.454385,2.35921,1.3312,1.41664,-0.864245,0.89585,
-2.47242,0.0409598,0.924915,0.148943,-2.24931,-0.568496,0.401496,
-1.67872,-1.29434,1.54727,-1.19748,-0.962414,-1.67554,1.60892,
-2.77617,1.66764,1.33609,-0.259054,1.07048,-1.03871,0.371411,
-2.74173,0.151938,0.769602,1.21172,1.74122,0.342217,-2.9658,
-2.37707,1.1664,-1.96955,-0.939389,2.60795,-1.90481,0.777641,
0.547402,1.04306,-2.39568,1.2232,-1.30844,-0.9693,1.03444,
-0.244115,-0.0832106,2.21613,0.615498,-1.7828,0.432652,-0.315226,
2.4204,0.208899,1.24132,1.86158,-2.8472,1.43114,0.781921,
-0.650482,-1.65944,-0.43317,-0.851109,1.60367,-0.648829,0.811788,
0.380239,-0.238657,0.561011,-0.921565,1.36212,-1.2902,0.135396,
-2.10809,0.335288,1.9454,1.77838,-0.548531,1.6527,-1.51868,
-2.08325,0.417138,-0.867713,-0.391869,1.66507,-1.48043,0.272138,
-0.233099,-0.695085,-2.94512,-0.0538945,-1.15433,-1.10694,-0.676698,
-2.21002,-1.02917,0.394478,0.316633,1.87436,-0.030942,2.12474,
0.0771435,-1.46827,-2.68919,0.194096,-0.370002,-1.9803,-2.64705,
-2.53397,-0.392239,2.68733,2.06084,2.28082,1.13795,-2.68933,
-2.72665,-0.591526,-1.39796,0.0990492,1.30087,-0.495058,-0.050462,
0.405933,-1.08168,-1.52536,1.39961,2.64158,-0.756211,-1.17937,
-1.88592,-1.91333,1.80327,1.15724,0.891668,0.714822,0.902168,
-1.66406,-1.08466,0.251518,-1.32944,-0.574785,0.268064,0.521894,
-2.38714,-0.757405,-0.955824,1.0737,-1.36517,0.251762,1.5925,
-0.165508,-0.00936545,-1.01566,-0.507619,-1.27056,0.858964,-0.349664,
-0.420569,-0.711881,-1.39972,2.00681,-0.59543,-0.365956,-2.0724,
-0.98131,-1.69948,-1.7647,2.04508,0.405724,2.05996,-0.604108,
1.17866,0.127974,1.38177,-1.56454,-0.346942,1.79822,-1.04209,
-2.7759,-0.282421,1.49774,1.21263,-1.39789,0.986747,1.80285,
-0.399004,-1.35791,-2.55572,-1.42216,0.356562,-0.90983,2.52933,
-0.551447,-0.678061,-1.97037,1.43762,-2.06652,1.09345,2.3805,
-2.3163,0.687325,2.05286,1.60675,1.7654,1.77239,-2.18162,
0.505065,-1.17746,-2.84357,-0.123747,-2.25713,0.152392,0.608913,
-1.37255,-0.381784,-0.838257,-1.84137,-0.965821,-0.941045,1.04556,
0.328274,0.177414,0.0620877,1.08431,-1.53388,0.956686,1.42007,
-0.334023,-0.0857365,1.22883,1.05815,1.45532,0.57757,2.17944,
0.243168,0.327106,-2.03227,0.0740645,-0.689618,-0.798701,1.89214,
-0.282823,-1.76034,-1.7482,2.08473,-0.856594,-0.384603,-0.560093,
-1.40164,-0.248777,-1.93804,-0.743801,0.51815,-1.77765,2.72614,
-2.42481,-0.422027,2.70168,-1.21239,1.77882,1.6439,-2.23473,
-1.46118,-0.947003,1.40046,1.35282,1.60082,1.74094,-1.48559,
0.445024,-0.760413,-0.398055,1.59332,0.103132,-1.3296,1.15783,
-0.345172,-1.69115,2.68041,1.1909,1.55816,-2.01825,-1.20495,
-2.43353,-1.72185,2.28442,-0.593706,-2.17306,-1.96597,-0.647992,
0.631969,-0.49685,-0.12338,1.02106,0.511883,-1.38061,-1.4614,
-1.47481,-1.21829,-0.928519,-1.26674,-2.41251,1.56998,1.53172,
-1.02556,-1.09143,0.116367,-1.34359,2.8529,-1.61016,-1.34691,
2.91912,1.44107,-1.32332,-1.54134,-2.49419,1.65105,0.0620385,
2.11658,0.560895,0.187851,-1.95145,-2.25307,-0.486139,-1.2529,
1.88569,1.58545,-0.0954742,-0.231054,2.80674,0.0698259,-2.56714,
-2.37787,-1.46428,1.58924,0.00946947,1.28398,0.861944,0.950166,
-0.122647,1.4302,-0.950959,0.209631,-0.536471,1.93283,1.74598,
2.12398,0.659438,2.31485,-0.630849,-0.198803,-0.273038,2.81599,
-2.43678,-1.66813,-2.60211,0.869777,0.791459,-1.44727,1.76985,
-1.63759,-0.142473,-0.334854,0.0966717,-2.74679,-2.01177,2.49766,
-2.29664,0.0272546,-2.21842,-1.58177,0.924105,1.49437,2.86144,
-0.202418,-0.310236,-1.59563,-0.603483,2.40074,0.430085,2.80443,
-1.18451,-0.892615,1.73224,0.323793,-0.910341,-0.545866,-2.93879,
0.328216,-1.03218,1.8586,-0.452888,-0.643204,1.87611,-2.76995,
-0.283405,-0.0223639,-0.435611,-0.377841,1.55759,-0.734531,0.411941,
-0.744191,-0.0846679,-1.51052,-0.996119,-0.495919,-1.88351,-1.18191,
2.19095,0.238683,0.479716,-1.55601,0.148471,-0.652642,1.42135,
-2.59516,-0.854702,2.86039,0.492885,1.89,0.445767,-1.06034,
0.106357,1.19877,-0.915791,-0.676985,-0.70023,-0.123412,-0.972515,
-2.8208,-1.56733,-1.58078,-0.178622,2.01018,-0.67814,0.337898,
2.24387,0.764412,-0.764327,-0.772019,-1.28168,-1.93745,-0.473177,
-2.62752,-0.316217,-1.17286,0.441382,2.79085,1.04235,2.73808,
2.21853,0.189662,0.921468,0.00731301,-2.93458,-1.61702,2.0372,
-2.71593,0.537084,1.24944,1.64723,1.54533,-0.31118,1.5099,
0.353921,1.70766,2.89865,-1.34724,-1.45865,0.577914,-2.34494,
-0.939515,-1.1887,-1.788,-0.548693,0.911738,0.970123,-2.26447,
-0.171114,-1.70568,1.98941,-1.31302,-2.0538,1.05422,0.303402,
-0.981658,-1.03806,-0.949149,-0.201472,-0.237803,1.9667,-0.416373,
-1.90592,-1.31244,0.196061,-0.27774,-2.87497,-0.762151,-2.80221,
-0.133765,1.45716,2.00234,-1.87911,-0.276207,1.02505,0.915367,
-1.42567,-0.963078,0.134519,-0.956471,2.6425,-0.294014,-0.906314,
1.15598,0.603026,-2.27472,-0.468515,-0.500415,-1.23758,-0.116808,
0.339478,0.0882085,-0.242163,-0.601262,1.92276,-0.213981,-2.43483,
-0.528685,-1.11345,-1.76147,-1.43266,0.0733903,1.16122,-2.28287,
0.979152,-0.494812,0.0542075,-1.86166,-2.87151,-1.05881,-0.828274,
2.5254,1.55063,-2.60699,-0.673874,-0.723653,-1.32909,2.2315,
0.815659,0.0817578,0.114602,0.613339,2.44831,1.0087,1.02425,
2.94618,1.30678,0.988978,0.614798,-1.82753,1.90063,-2.59305,
-0.58831,0.0539154,0.834652,-1.4633,-0.353651,1.1994,-2.12827,
-0.516174,-1.4882,2.06632,-0.910689,-1.70262,1.73191,0.409896,
-1.14008,-0.986651,1.10694,-1.13926,-1.50846,0.812487,-1.20398,
0.870085,0.668117,-2.48371,0.810553,-1.03002,0.656336,-2.47015,
-0.201054,-1.85463,-0.0983176,-1.05356,0.443716,-0.369711,0.237786,
-1.79157,0.029101,-1.57194,-0.344726,-2.12406,-1.38401,-0.852924,
0.108035,-0.853123,-0.25517,0.881744,0.0866251,-1.42921,2.69392,
-0.566845,-1.19025,-2.0018,-1.91488,-0.598933,1.93332,-0.269717,
2.34012,0.22544,2.4386,0.944107,-1.76288,-0.612887,-0.0919843,
-1.10866,-0.732219,0.46197,-1.83609,-2.27111,-1.04341,-0.29352,
0.300549,0.895471,2.76203,-1.88225,-2.30001,-1.88939,2.51943,
-1.56193,-1.42189,-1.66729,-1.31155,-2.5977,-1.20697,-0.784016,
0.331675,-2.09253,-2.62035,1.98988,0.668145,1.22208,-0.159642,
0.409015,-0.129289,-0.996604,-0.549561,0.123755,-0.45574,-0.662828,
-0.953583,-1.85573,-1.16572,2.06575,1.01815,0.111392,-0.380813,
-2.4501,0.754116,1.0922,0.678137,2.24732,-1.72242,0.761732,
-2.19358,-0.926265,-1.31492,1.10162,1.45245,1.40831,1.89984,
-2.80385,-1.55054,-2.50854,-0.170395,0.460668,0.798566,-0.65154,
1.64219,0.951763,-1.19095,-0.621459,0.251168,0.087594,2.82909,
1.88821,1.04157,-1.94783,0.551015,-1.1501,-0.413936,2.00431,
2.01597,0.574222,1.30502,-0.601109,2.40033,1.13885,-0.233982,
1.28555,1.04823,-1.69968,1.5269,-1.10624,-1.35368,-0.856747,
1.68741,0.987007,-0.89581,-1.67285,-1.57945,-1.52691,1.27796,
-2.90877,-1.15974,1.09444,0.950489,-1.7319,0.845954,-0.299572,
-2.01048,-0.881809,2.62481,1.53588,-1.6921,0.131295,2.52189,
-2.13434,-0.734669,-2.91755,-1.41912,-2.51818,0.146614,-2.14414,
-1.87681,-0.852884,-0.188971,-0.733452,1.66006,-1.45409,0.702268,
-2.84011,0.815809,-1.23851,-1.98774,-1.54074,-1.11031,1.80636,
-2.77641,-1.27764,-2.6665,-1.03069,-2.87881,-0.0663868,-2.76327,
-2.91132,-1.26895,-1.01909,0.853191,-2.2083,-1.49255,-2.65724,
2.34601,0.286819,-1.64651,1.69425,-2.54687,-1.94101,-0.0625203,
-0.440596,-0.279358,1.49395,-1.85596,-1.48248,1.58511,-0.554447,
0.715059,1.4944,2.82046,0.0489393,1.38968,-0.433824,1.52772,
2.95171,1.14214,-2.49376,-0.987475,-1.24837,1.47015,-0.779212,
0.252703,-0.714012,1.48865,-0.83397,0.467223,-1.9759,0.380916,
-1.96278,-1.70031,1.39111,0.797166,-0.714722,1.27037,0.0633891,
-2.54809,-0.0590578,2.21111,-0.845119,-0.479365,0.0819509,-1.57002,
-0.781503,-0.890062,2.0073,0.756165,-2.00114,-1.07777,0.233561,
0.981475,0.97205,-2.30645,-0.512353,1.66489,-0.980583,0.241717,
-0.382136,-1.62127,-0.337986,0.241416,0.627137,-0.0740243,-1.40073,
-1.40424,-0.33983,0.193694,-0.818493,-1.60096,0.760264,1.93519,
-1.89675,-0.583801,0.0223188,0.287962,2.71891,-1.89877,1.7335,
1.2108,-0.478953,-0.979094,-0.577337,-2.15224,0.851842,0.807125,
-2.07013,-0.417145,-2.0553,1.17985,2.78696,-1.18424,-0.430611,
-2.42986,-0.246462,-2.12725,-1.34631,-1.23939,-1.82371,0.871269,
-1.6537,-0.554496,0.303716,1.10052,-2.40207,2.01836,-0.658595,
0.136479,-0.348525,2.41785,-1.81344,2.35406,-1.12193,-1.00889,
2.84763,1.09156,0.287142,-0.217292,2.47738,1.64522,-1.45836,
0.871334,-0.853264,-1.61907,1.63488,-0.389843,-1.58716,-2.73796,
-0.835849,-0.195537,1.88796,0.622388,1.83541,1.79988,1.75293,
2.32779,1.21052,-1.16463,-1.93797,-0.552324,-1.9192,-1.71233,
0.419666,-1.25471,2.85022,-0.352383,2.41429,1.68482,1.70201,
0.498368,-0.140971,-2.14076,-0.206418,2.53781,-0.791711,-2.34787,
0.697048,1.11095,-1.27386,0.634169,-1.42181,-1.08584,1.73185,
0.530661,-1.6148,0.377643,-2.01458,-1.43852,0.701512,2.35207,
-1.86963,-1.84751,0.427509,-0.168057,2.32159,1.81437,1.66757,
2.82011,1.54685,-1.93685,0.452053,-0.0894332,0.609206,-2.72914,
1.76103,0.329287,-1.99437,-0.553067,-0.728001,0.893874,1.79648,
-2.86231,-1.37677,-2.56204,-0.912108,-0.341928,1.25267,0.951371,
0.392696,0.325789,0.41948,0.948451,0.21929,-1.03947,-0.892126,
-1.08718,-0.175208,0.734855,0.234435,0.677976,1.27342,0.640979,
0.233535,-1.52298,1.6386,-0.365718,1.39121,1.64807,-2.01713,
1.6528,0.638791,1.89442,0.132855,-0.129197,1.16763,2.42213,
-0.822252,-1.23692,-1.84765,0.646527,0.922736,0.569737,-0.328651,
2.23692,0.285358,-1.11677,0.385508,-0.927262,-1.62572,0.231813,
-1.03518,-0.900156,-2.41352,-1.6045,1.2216,-0.944792,-0.619211,
-1.86723,0.0815512,1.88993,-0.604839,0.510566,1.50464,-1.30521,
-1.57512,-1.58731,-1.59807,-1.99948,-2.60367,-0.987659,-2.36941,
-2.35641,0.206383,0.79639,-0.0212375,-1.18479,-1.41338,-2.94723,
2.8588,0.654126,-1.42602,1.91542,2.79357,2.04252,2.88694,
0.062865,0.0514141,0.247558,-1.59316,1.76275,-0.523194,2.01567,
1.15756,1.67073,1.54756,0.576158,2.85965,0.802636,-0.646044,
-2.90392,-1.23341,2.16072,1.30502,2.28944,1.30744,2.51892,
0.683764,-0.729207,-0.0315231,-0.340257,-0.912688,-0.100139,1.19881,
0.286554,0.69108,1.71517,-1.276,2.71135,-0.167813,2.77007,
-1.82618,-1.64802,2.06311,-1.36392,-1.02158,-0.622636,-2.09596,
0.0517547,-1.07105,-2.87923,0.581809,0.128568,-0.520982,1.4226,
0.648211,1.97838,-1.1258,1.37239,2.60917,1.43081,-2.50384,
-0.349084,-1.00326,2.87417,1.58786,-1.75361,0.941146,-2.62732,
-1.38414,-0.935378,-1.7003,1.6254,-1.45493,-0.628181,-1.48626,
1.97264,1.26374,-2.28119,-1.96699,2.85611,1.68825,-1.9652,
0.834281,-0.651399,1.7724,-1.22432,-0.836585,0.264064,-1.79342,
-2.03192,0.377859,-0.798263,-0.680824,-0.101714,-1.14516,1.0752,
-2.67317,-0.148005,0.0666323,0.313484,-1.59513,-2.00588,-0.527271,
-2.19555,-0.279763,0.237433,-1.39027,0.992763,0.423358,2.05186,
-2.60026,1.25475,1.4178,1.46809,1.03284,-1.39441,1.00812,
-1.60387,-1.07217,-2.46873,1.12434,2.60439,1.93691,0.0797221,
-1.91229,-1.46806,-1.13913,-1.20626,1.49968,-1.99524,-2.30346,
0.0163585,-0.124745,2.01876,0.424153,1.23485,0.242362,0.344999,
-2.43776,-0.785638,1.37197,-1.32636,1.08731,0.633547,-0.204406,
0.440847,-0.607126,1.63091,0.249802,-1.88546,-1.51674,-1.58882,
1.39081,0.939813,-0.911793,0.272107,0.628379,-0.477938,0.55589,
-1.98193,-0.775945,1.51026,-0.838486,2.48121,2.06376,1.76987,
-0.514195,0.124011,-0.471622,1.37644,2.64218,1.00021,-2.35729,
-0.329168,0.0244007,-2.47724,-0.532936,2.32322,0.372225,1.90255,
-0.229174,-1.09923,-1.56296,1.97443,1.17405,1.82866,-1.41612,
-2.68123,-0.405408,-0.745325,1.45172,-0.465133,-0.695339,-0.249658,
-0.71919,-1.42896,-1.43113,0.974847,2.73272,0.355949,0.429652,
-2.16502,0.513716,2.66553,-0.024237,2.62207,-0.333431,-0.522408,
0.840348,-0.0382582,0.668222,-0.886131,0.0490583,1.21292,-1.17887,
-2.03254,-1.55712,1.86751,1.2375,-0.746767,-1.16522,-2.74255,
-2.96338,-1.06277,0.684584,-1.046,-2.27629,1.80821,-2.60378,
1.19974,1.31336,1.15638,-1.8481,-1.88999,-1.76742,1.28905,
-2.37362,-1.49453,1.25955,-0.413476,2.87855,0.0415055,-2.92878,
0.915472,-0.384265,-0.590594,0.440699,0.278044,-0.902406,-1.12698,
1.59931,0.394154,0.231147,-1.7654,2.84935,0.93691,-2.58198,
-2.34316,1.10281,-0.276891,1.31147,-0.187697,-1.63484,1.96912,
0.148713,-1.90893,-0.400578,-1.61958,1.01461,-0.951598,1.54866,
-2.71553,-0.798933,-0.630166,-0.477074,1.41779,-0.731002,-1.72851,
1.45698,-0.319372,-0.00621988,-0.57327,0.781295,-0.666732,1.9152,
-1.27994,0.124735,-1.14714,0.370296,-0.832873,-0.436286,-0.435156,
0.398224,1.21476,-0.499074,0.485417,0.17029,-1.98413,-2.30249,
0.633821,-0.40029,-1.24717,0.638175,2.37394,0.643904,-0.239593,
-1.07679,-1.65088,2.15108,-1.44437,-0.1673,0.0914632,0.641446,
-0.404342,-1.12402,2.04424,0.966801,-1.03717,1.86641,0.628142,
-2.83394,0.807815,2.16812,0.578383,-0.858447,-2.05056,1.54758,
-2.37175,0.154478,-0.571742,-0.426272,-1.14674,0.696328,-2.84822,
0.302667,-0.916127,0.914059,-1.17391,2.46674,0.595804,1.22278,
-1.03009,-1.42857,0.229901,1.1341,0.855089,-1.601,-2.5074,
0.17119,-0.57869,-0.174306,0.240425,0.210329,-0.730795,-1.98545,
-2.39951,-1.68481,0.271182,-0.574072,-1.91004,1.08878,-1.71413,
0.381734,-0.756605,-1.68919,-0.344481,-1.21976,-0.130233,-0.683161,
-0.881072,-0.564363,0.143941,0.674854,-1.9959,-0.82077,1.4671,
-1.42889,-1.40724,-2.86448,0.497937,-0.433626,-0.539869,-1.44567,
-2.03306,0.39463,-1.44842,-0.802561,-2.69427,-0.499531,-1.36842,
1.85131,1.4217,-2.64633,0.703699,2.44375,-0.201101,0.590759,
0.486082,1.22152,-0.0155067,0.391809,2.56321,0.743306,0.852773,
-1.61425,-1.70868,-1.93314,-1.09438,0.901076,-0.556229,1.52649,
1.88299,0.962089,0.143986,0.337844,2.59034,0.908205,1.16067,
-1.32947,-1.22751,-0.262232,0.0190041,1.43148,-1.44205,1.95468,
-0.992678,-1.9355,-0.910017,-1.70232,-0.100354,1.0562,-1.92545,
-2.11554,0.0284253,1.90367,-0.0393946,-2.63699,-1.53557,1.90073,
0.5818,0.423759,-1.29816,1.14813,0.353849,-0.773002,-2.07209,
-0.873312,0.132575,2.10771,-0.463724,-2.08003,-1.93614,-1.90498,
1.55104,0.660628,-0.0264794,-1.78457,-0.0418415,-1.32262,-1.37632,
2.72257,0.637928,0.31438,-1.87588,-0.772968,-0.0907313,0.67204,
-0.193905,0.379838,1.24576,-0.490409,0.172233,-0.266364,1.63829,
-2.90636,1.69081,1.96066,0.269548,1.04306,1.98969,-0.139729,
-2.34355,-0.879566,-0.586216,1.98619,-2.11499,1.5811,-2.55009,
1.72963,0.439902,2.15608,-1.46584,2.12742,-1.04182,-1.49822,
-1.09842,0.113739,-1.04679,1.56739,0.683955,-0.224666,0.0275729,
-2.57524,-0.41178,0.0602064,-1.12252,-0.798057,-1.13849,2.72333,
0.100065,-0.179701,-0.701826,-0.619119,1.21113,-1.05395,-1.34685,
-2.27081,-1.13355,1.68565,-0.161047,1.32195,1.01397,-0.51524,
-2.5043,-0.630848,-1.11329,0.532898,-1.90464,1.34048,-1.15795,
-0.0629656,0.18571,0.791061,1.74949,-1.01264,-0.0462045,0.20222,
-0.938356,-0.310846,-2.50788,-0.203281,-0.661288,-1.78969,1.32113,
1.61375,0.92683,0.85277,-1.20641,-0.155438,-0.382518,3.0382,
-2.75728,1.17044,0.302013,0.956275,0.24636,-0.674362,-2.56538,
-1.0009,-0.0180841,0.948625,0.595589,0.281045,-1.58996,2.65502,
0.169406,0.308346,-1.65743,-0.177609,-2.56396,1.97752,-0.670373,
-2.48572,-1.74841,0.284015,-1.10497,0.945563,0.274637,-1.16079,
-0.623405,-0.714048,-1.92136,1.63343,-0.965905,1.43443,1.52575,
1.58777,0.955566,0.536998,-1.41538,1.01674,1.97443,1.23795,
2.2694,0.11616,-0.969112,-1.71834,1.70638,-0.180102,-0.334726,
2.761,0.133968,-1.96266,-1.65629,2.41152,-0.561364,-0.565676,
-0.918331,-1.64152,0.436463,-0.658539,1.39836,0.423425,-0.38602,
-1.13774,0.0370331,-1.26582,0.820965,0.0261671,-1.96363,-3.04538,
1.06794,-0.102287,-2.55704,1.02125,2.57285,1.70613,-2.98396,
-2.18279,-2.04464,-0.930439,-0.700796,-0.502621,-0.936048,1.09543,
0.593001,-0.205897,-0.915974,-0.614332,-1.74146,0.193527,1.44697,
1.47116,-0.531371,0.254867,-1.64218,-2.24761,-0.0791334,0.474971,
-1.27304,-0.942867,0.382559,1.63597,1.43327,0.542971,-1.2031,
2.52413,0.498856,0.223486,0.519211,-0.361509,1.08925,-0.689647,
0.227846,-0.662611,-1.20684,-0.419279,2.28328,1.48265,-1.91002,
-2.12858,0.844497,-0.236529,0.921442,-0.310166,0.485708,-1.18591,
-1.15944,-1.51353,2.89046,-0.345786,0.605568,0.811552,1.52796,
-0.66382,-0.413203,0.161472,1.7974,1.2481,0.652621,-2.74162,
-0.034858,0.502973,0.206454,-1.06144,1.93272,-1.70257,-1.39317,
-1.50527,-0.706951,-2.12305,0.926583,2.44005,0.983633,0.939579,
-1.51274,-1.47092,-2.80344,-0.142479,1.78718,0.151232,0.56287,
1.35625,-0.413461,-1.18504,0.251987,1.27412,0.316714,1.37614,
0.60293,0.828373,0.0776613,0.861304,1.24684,1.93984,-2.49143,
1.57096,1.97511,1.53541,-1.19741,0.921679,-0.663715,1.40792,
2.03544,0.329318,2.49555,0.254653,0.0366139,-0.566106,-2.5522,
-0.124575,0.249063,0.288466,-1.26629,1.14961,0.846597,-0.120378,
1.45468,2.07086,2.71453,-1.059,0.616345,1.47863,1.47085,
2.12053,0.705684,-1.68802,1.80826,2.04553,-0.081636,-2.94014,
2.54005,1.81592,-0.464987,2.02293,-2.19604,-1.19283,0.35805,
2.20593,1.39887,0.269272,1.16955,2.18232,1.70128,-2.0942,
0.915141,-0.17148,-0.715374,-0.727755,1.51755,1.1954,-2.12143,
-0.568864,-0.407112,-0.694668,1.30631,-2.83933,-0.811166,2.73267,
-1.60144,-0.663095,2.24726,-1.32729,0.513148,1.21168,-2.32477,
-2.46862,0.325662,2.5975,0.936193,-2.82629,-1.89622,-1.33481,
-2.45388,-1.8601,1.14315,-0.561532,-1.91071,-0.248734,-1.90162,
1.92725,0.405324,-2.57115,0.0889161,0.946957,0.275771,-1.72466,
-0.158919,-0.921407,-2.54104,2.04954,-1.86913,0.352778,-0.406827,
2.33303,0.308509,-1.38314,1.67606,-0.377287,-1.38961,0.151288,
0.219009,0.585289,-0.669855,0.612288,-0.808297,0.87949,2.01678,
-1.32005,-1.43772,-2.2122,0.327889,2.75679,-0.921721,-2.42205,
2.2189,0.926542,-1.1585,1.497,2.93581,-1.62463,-2.15043,
-0.645458,-0.92339,-1.5557,0.877587,0.239134,0.166372,0.73006,
-2.29161,-0.484594,-0.730224,-1.13829,0.757048,1.11415,0.39046,
-2.0921,-0.968522,0.974059,1.42462,2.87289,1.62441,1.40878,
-2.6973,-1.43643,-1.60657,0.176499,1.1555,-0.0804255,1.57431,
-2.46993,0.235829,-0.57752,1.36281,1.77759,0.001388,1.14584,
-2.83122,-2.0327,2.73064,0.813776,0.25032,0.120943,-2.41958,
0.608926,-1.10462,0.274827,-0.0307733,1.22292,-0.383891,-1.74582,
-0.862338,-1.02862,-2.44724,-0.3858,-1.76754,-0.510407,-0.643021,
-1.87269,-1.63596,1.78483,0.744626,1.32843,1.09203,-0.668425,
-0.47386,-1.71465,-0.200243,-2.01904,1.44814,0.265235,-2.03545,
-1.13909,-0.977248,2.69851,-1.02942,-1.36039,1.28955,-2.44479,
-0.348082,-0.549837,2.47462,0.302777,2.59312,0.343733,0.68258,
-2.85908,-0.41443,2.28513,-0.193847,-2.34642,1.58642,-2.89492,
-0.596989,-0.984882,-1.49163,-0.824162,-2.81426,-0.670046,0.310685,
-0.699001,0.212919,-0.0883971,0.456293,-2.47722,0.989083,-1.48442,
1.48275,1.96598,-1.59348,1.86565,0.287895,1.35285,-2.20341,
0.69371,0.0668029,0.833173,0.560481,-0.896477,-0.482524,-2.00826,
-2.47978,-1.17266,1.91331,0.87712,-0.525096,-1.06999,0.0317372,
-0.419422,-0.727904,0.830323,-1.07738,1.81382,0.0255186,0.802062,
-0.82262,-1.60049,0.421525,-0.739343,1.68458,0.981732,0.706105,
0.733346,1.37541,1.08906,0.491708,-2.07539,-2.07705,-2.3068,
-0.00986237,-0.0853596,0.171748,0.48169,-1.5157,-1.86734,-2.93981,
1.44688,-0.395822,1.7161,-1.58102,-1.90241,-1.27468,1.60178,
1.21673,0.14392,2.19342,-1.26296,-2.46318,-1.22937,1.96559,
2.52377,1.69912,1.23609,-1.31935,-1.43391,-0.468203,-2.01024,
-1.0874,-0.394361,-0.490968,0.351902,1.41637,1.44094,1.35434,
-1.04261,-1.03917,-1.9408,1.76582,-2.4107,-1.06994,0.882609,
-0.749464,-1.60378,-1.71727,-0.575804,-0.331751,-2.07048,2.27398,
-2.23524,0.703305,1.56413,0.955384,2.6658,0.903371,-1.16586,
-0.558217,-1.24112,-2.45456,-1.44836,1.26222,-0.125491,1.6095,
-1.86711,-1.61023,-1.26091,1.27795,-1.12702,-1.16246,-1.90999,
-0.848663,-0.610347,1.15662,-1.87925,1.26988,1.69313,-1.50025,
-1.60566,-1.51485,-2.01164,-0.113863,2.01135,0.544331,-1.65122,
-0.826831,-0.0784307,2.39194,-1.95583,-2.86314,1.03913,2.22773,
-0.846916,-0.392817,1.14744,1.92628,0.532792,1.53074,-2.35638,
1.14252,0.933182,-2.21586,-0.00908435,1.95051,-1.57799,2.90158,
0.665374,-0.52827,-2.31302,1.52527,-1.22844,-0.875443,-2.61158,
-2.94506,0.799763,-1.89217,-1.88629,2.36316,0.959744,-0.189008,
1.98254,1.04205,2.57984,-1.60849,0.94905,-0.450046,1.11899,
-1.86755,-1.92901,2.25211,1.7744,2.80117,-0.530031,-1.91296,
0.156822,0.385719,1.46229,0.428771,0.842663,-0.853466,2.19651,
2.31292,0.373974,-0.536958,1.12174,1.7664,-0.301112,2.71778,
1.80427,0.630448,1.2041,-2.08082,0.447646,2.05861,-0.452249,
2.36036,0.954693,1.025,0.496214,-1.94833,1.51116,-1.54789,
-1.09328,-1.94392,-2.85726,0.495668,-2.39918,-1.94524,-0.0691983,
-2.20277,0.752334,0.582016,0.426873,0.468713,-0.279123,-0.476623,
-2.94879,-1.40786,1.16419,0.510679,-2.79628,-1.59605,-1.71747,
-0.922141,-1.54944,-2.20492,-1.72784,0.641077,-0.0781023,0.0985152,
-0.570134,-1.3512,-0.967487,-1.90777,1.0385,1.16793,-0.620175,
-0.541752,-0.613272,-0.230278,0.382272,-0.359367,0.937015,0.0719042,
0.176572,-0.794268,-0.570949,-0.0911063,1.59782,2.0421,0.00774868,
0.145688,-0.214419,-1.25374,0.958482,-0.996054,-1.40215,-3.02192,
-0.476452,0.175552,-0.974478,1.15276,1.27638,-1.50198,-2.68732,
-0.293345,-1.50695,-0.781918,-1.9987,2.89389,-1.48413,2.03735,
1.03503,-0.911894,1.84385,-1.81911,-2.75733,1.54273,0.508962,
-0.686153,-0.634853,-2.02735,0.990413,2.83549,-0.439305,2.87632,
0.0639052,0.0286456,-0.412791,1.52823,1.76497,-0.598609,3.00755,
-2.90052,-0.731477,-1.89293,0.58698,-2.76457,-1.62935,-1.51119,
2.57804,1.32244,-1.99503,-0.342467,-1.85718,-0.0606976,2.14243,
2.01853,0.523029,0.656586,-1.34558,-1.30545,0.783339,-1.7572,
-0.469784,-0.453564,0.198897,-1.90539,-0.286299,1.27433,-1.23713,
0.198206,-0.360193,1.1186,0.360029,-0.165302,0.883223,-0.906766,
-1.35213,-1.04743,-2.26769,-0.0618652,0.520441,-1.87816,-1.12794,
-0.952941,-1.58943,0.0945795,-1.06478,0.0887267,-0.490244,-1.83786,
0.0573461,-1.27072,-0.472621,0.956283,-2.91301,-0.748309,0.0276424,
2.39365,1.10183,1.16132,0.93789,1.41914,-1.92758,1.23345,
-0.75485,-1.26185,-1.80989,-1.18981,-2.20723,-0.584105,1.44895,
0.191899,-0.175073,-0.697429,1.2336,0.808744,1.25164,0.673548,
-2.52696,-1.21135,-0.0157927,1.8718,-1.44269,1.81172,1.35306,
0.270775,-0.44097,-0.56935,-0.97711,0.132679,-0.487403,1.96994,
-0.393238,0.19946,-0.273246,0.0315567,-2.22304,-1.47078,-0.0560775,
0.640287,-0.830905,-2.21261,1.22396,2.1175,0.26974,-2.26415,
-2.85509,-0.57979,2.24829,0.498146,0.29813,1.09671,0.963706,
0.719218,0.287527,-0.202907,1.3798,0.57756,-0.688387,2.05151,
-2.61816,-0.514421,1.34469,-0.861367,1.57994,-1.62078,-2.25307,
1.56986,1.28743,2.21686,-0.899826,-2.21047,1.20137,1.67397,
-0.399786,-1.80585,2.08764,1.69638,0.038937,-0.921696,-1.42916,
-2.02055,0.576157,0.736075,0.224476,-1.5028,0.768346,-1.76335,
0.228042,-1.43338,-2.18743,-0.214623,2.82825,0.652275,0.318678,
0.192796,-1.76057,2.34544,1.25926,-2.78776,-1.08664,-1.61609,
-1.20043,-0.350689,2.20093,-1.94507,-2.61187,1.25215,-1.16004,
-0.604342,0.108697,0.404121,-0.228257,1.2127,-1.18396,1.00526,
-0.261523,0.414489,-1.54866,0.760591,0.679708,-1.99195,-2.49123,
-2.65813,-1.37241,1.93639,0.857419,0.107957,0.436335,-1.32916,
-0.275254,-0.347664,-0.232788,1.36308,-1.47628,-0.511463,-1.61681,
0.873891,0.283587,2.45989,-2.00925,-0.419302,1.00839,2.24675,
1.155,-0.669041,0.659409,-0.508335,-0.766085,0.224638,2.49628,
0.467486,1.46452,1.92935,0.665502,1.33691,0.761107,-2.05064,
-1.78554,-1.64285,0.94328,-1.73944,1.62866,1.75397,2.54985,
-1.58483,-1.25783,-0.0232072,0.107971,-1.03548,-0.440779,0.105608,
1.86496,0.136187,2.80673,-1.96414,1.97693,-1.79641,2.25111,
1.63568,-0.0246282,0.241311,-0.798984,1.7307,-1.03331,2.85493,
-2.68073,-0.816469,0.0474736,0.884366,2.32187,0.863518,-0.372414,
-0.510137,-2.08875,0.643108,-1.56366,-1.5772,-0.156731,1.16089,
0.352256,-0.925892,1.66129,-0.47838,1.99843,1.07788,2.54453,
0.522531,0.324046,1.88119,-0.145753,-1.70828,-1.34979,0.812917,
-0.841463,-0.0548691,0.313888,-0.539173,0.959935,0.314726,1.87877,
-2.83985,-0.514512,-2.49102,-1.59657,-2.86923,1.21926,0.478362,
-0.426531,-1.41859,-1.84721,1.31525,-0.30298,1.56477,-0.275837,
0.701677,1.13578,0.840274,0.755948,1.73326,-0.418139,0.758579,
1.9711,1.263,1.80738,-0.515248,-1.59769,1.04639,-1.08759,
-0.331166,-0.295085,0.807815,1.81063,-2.52242,1.74489,1.44236,
-1.479,-1.22929,1.85364,-0.57592,-2.95859,-1.52184,1.6585,
-1.61637,-1.58412,-1.58969,-1.9122,-0.768169,1.99303,-0.725328,
-1.14016,-1.35344,0.119588,-0.414398,1.50442,-1.51743,0.116937,
-2.93777,0.419755,-2.80553,-0.285133,-2.14671,-0.845664,-0.892113,
-1.00448,-1.49446,-1.91803,1.34489,1.66192,1.78595,-0.781507,
-1.0791,-0.361711,-2.1148,-0.488358,-2.32196,1.444,-2.72076,
-0.64119,-0.276869,-1.71366,-1.37588,-1.25025,-1.84572,0.0693184,
-1.70918,-0.27148,2.08087,1.82257,2.71994,0.448115,-1.14321,
0.581433,1.17153,-0.134179,0.870478,0.671804,1.3169,1.01023,
1.6805,0.504768,-0.0164038,-1.53936,-1.86444,-1.49774,-1.32755,
1.51933,0.401677,-0.0530563,1.0334,-2.29748,-0.654154,0.213189,
-1.62629,-1.35863,-1.23114,0.0213419,-2.064,0.259774,-1.84581,
-0.964431,-1.03825,-2.36667,0.270182,-0.389103,1.53659,0.153984,
1.17939,-0.503665,1.708,-1.32059,1.58834,-1.40677,2.7269,
1.62357,1.58458,-1.50166,-1.80295,-2.53224,-0.649645,1.70025,
0.255106,0.407606,-0.611096,-1.20161,-0.259946,-0.95606,1.94531,
-0.0815144,-0.113177,1.12213,-0.0392055,1.20085,-0.570386,0.48191,
-1.89935,-0.591318,0.0756164,0.544359,-2.23159,0.954947,-2.06243,
0.419055,-0.361832,-0.410773,0.748219,1.39689,-0.478499,-0.814952,
-2.12016,-0.716764,2.31264,1.20113,0.460741,1.18159,1.12435,
-0.73812,-2.01755,-0.815798,-1.80124,-2.42552,0.293467,2.13456,
0.103696,1.25908,-0.551815,0.938935,2.7151,-0.506249,1.69816,
0.393817,-0.772668,-1.82091,-0.317157,-2.1113,-0.829796,0.0734098,
2.65886,1.02741,1.34819,-1.4861,-2.44152,1.20981,1.81571,
2.15463,1.17717,2.20282,0.888041,1.24411,-1.3716,0.251436,
-2.33499,-0.410635,-2.14022,0.28101,0.50384,0.480984,2.40766,
2.34115,1.06514,0.884032,-2.03779,1.01803,-1.37217,-0.877761,
-1.45071,-1.84125,-1.55637,-1.42796,-1.73092,-1.14195,-2.60832,
0.737547,0.767167,1.78534,-1.27216,0.0592866,-0.919936,-2.50519,
2.54193,0.827234,-1.11799,0.0928154,1.08291,1.939,2.84642,
1.95399,0.593653,2.01347,-1.31966,0.25489,0.354841,2.79335,
2.12591,0.60745,0.294279,-0.226226,2.47229,-2.08194,2.33461,
2.61348,-0.00584288,2.10011,1.06132,-2.62114,0.531399,-1.6521,
-2.14688,-1.42651,2.0737,-0.769374,-1.26008,-0.255972,-1.93055,
2.62169,1.45173,-0.112651,-0.920847,2.2788,-1.39961,-1.43252,
0.846235,0.691889,2.33519,-0.537937,-1.18349,0.683469,-1.49993,
-1.34211,-1.3977,-0.340978,0.411377,0.756715,-1.93049,3.01085,
0.550186,0.212745,1.50498,-1.31203,-1.55233,-0.10938,-1.45175,
-1.64777,-0.43746,1.96548,1.53925,-2.31168,-0.00398665,0.949755,
1.78355,1.70931,2.34208,0.0228886,0.595959,-0.00656471,-1.25284,
-0.181885,0.655248,2.01817,-0.72751,-0.40469,0.991197,0.638156,
-0.106026,0.652418,-0.654678,-0.321432,-0.642085,1.17494,-2.35024,
1.18063,0.52943,1.67901,0.401224,2.34437,1.39755,-0.874029,
0.275685,1.65372,-1.18984,0.554368,0.919055,0.309157,2.94662,
0.667079,0.909773,2.89913,0.720291,-0.583878,1.19501,2.90226,
-1.55756,-1.19153,2.43944,0.470195,-1.21422,0.705362,-1.23693,
0.86596,1.40953,1.824,-1.89472,2.26671,0.325325,2.13238,
-1.36499,-1.08195,-0.0248844,-1.24829,0.358539,-1.29706,2.4495,
1.29871,0.503365,2.15035,-0.572316,0.308409,-0.834381,1.4149,
-0.193581,-1.42261,-1.17046,-0.0803673,-0.114087,-0.545275,-2.3273,
0.184111,1.10177,-0.499071,0.13174,1.25904,0.21455,-0.195331,
0.63434,-0.198308,-1.22183,-0.0806854,1.01694,-1.37257,-2.79443,
-1.58369,0.21199,1.70216,1.91796,-2.36495,0.00508788,-0.191753,
-1.58658,-1.36396,2.22325,1.11456,-0.178637,-0.626174,0.47014,
2.56316,0.615991,-0.918898,-1.41815,-2.69026,-0.257813,0.0896134,
-0.263992,-0.183322,1.12756,1.05587,-1.45344,1.03938,0.25039,
1.78235,1.55182,-1.38652,1.30211,0.0880051,1.90962,1.91816,
-2.33054,-1.25095,0.833844,-0.402134,-2.39706,-1.03877,2.413,
-1.13762,-0.339742,1.76144,-0.620928,-1.91298,0.808101,0.317064,
-0.331557,-1.68345,0.770265,-0.0840354,-1.61485,0.9747,1.48761,
-1.66279,-0.818739,1.53662,-0.798227,-0.503784,-2.04419,-3.02671,
-1.38039,-0.0387837,2.29828,0.394283,0.0642902,-0.994803,1.31747,
2.83621,-0.0143137,0.913181,-0.669517,1.5837,-0.826695,1.92075,
